cdn/LUTs/Dune Sony.cube
TITLE "Generated by Resolve"
LUT_3D_SIZE 5
0.0232853 0.0236362 0.024979
0.0650645 0.0336614 0.0341039
0.440696 0.0937362 0.059968
0.648981 0.122072 0.0740063
0.652903 0.122423 0.0740673
0.03682 0.0616617 0.0505379
0.065507 0.0739452 0.0543679
0.446952 0.0963149 0.0605631
0.649561 0.122133 0.0740063
0.652903 0.122423 0.0740673
0.10251 0.3691 0.225254
0.104005 0.374624 0.227909
0.484703 0.424872 0.20412
0.750835 0.408835 0.182177
0.652964 0.122667 0.0741283
0.183383 0.633204 0.315435
0.184039 0.634699 0.315648
0.184192 0.635096 0.315724
0.810636 0.736522 0.322164
0.820523 0.730877 0.319615
0.193484 0.653498 0.317937
0.193484 0.653498 0.317937
0.193484 0.653498 0.317937
0.193545 0.653498 0.317937
0.821454 0.759182 0.329885
0.0291447 0.0318761 0.0604868
0.080766 0.0433204 0.0766003
0.440543 0.0917525 0.0705882
0.649027 0.122087 0.0740063
0.652903 0.122423 0.0740673
0.0395209 0.0764477 0.0824292
0.0819867 0.0966964 0.104631
0.448112 0.0942245 0.0714275
0.649668 0.122133 0.0740063
0.652903 0.122423 0.0740673
0.102708 0.369909 0.22565
0.104189 0.375311 0.228229
0.486198 0.425971 0.204547
0.751369 0.409888 0.182696
0.653025 0.122927 0.0741436
0.183581 0.633646 0.31548
0.184298 0.635203 0.31574
0.184451 0.63566 0.315801
0.811063 0.737331 0.322484
0.8206 0.731884 0.320027
0.193484 0.653498 0.317937
0.193484 0.653498 0.317937
0.193545 0.653498 0.317937
0.193545 0.653559 0.317952
0.821454 0.759243 0.3299
0.0944228 0.151324 0.343267
0.128328 0.155444 0.344915
0.553109 0.182055 0.373785
0.740246 0.14725 0.30277
0.652903 0.122423 0.0740673
0.0951247 0.152483 0.345495
0.112505 0.156161 0.349859
0.563943 0.188479 0.385916
0.746365 0.153613 0.317403
0.652903 0.122423 0.0740673
0.139055 0.459632 0.425818
0.138216 0.466773 0.43212
0.531807 0.494606 0.458701
0.816388 0.41709 0.336355
0.652995 0.122789 0.0741588
0.242008 0.75111 0.500053
0.2439 0.755444 0.506294
0.24329 0.754299 0.502815
0.849332 0.777859 0.383795
0.8206 0.731884 0.320027
0.193484 0.653498 0.317937
0.193545 0.653529 0.318013
0.193545 0.65362 0.31809
0.193545 0.653559 0.317952
0.821454 0.759243 0.3299
0.166918 0.263416 0.578836
0.166827 0.263325 0.578637
0.487816 0.290684 0.63006
0.821927 0.313619 0.670604
0.827161 0.301244 0.634623
0.167452 0.263996 0.580224
0.167895 0.264469 0.581323
0.495262 0.292638 0.634745
0.823117 0.315328 0.675639
0.827451 0.30454 0.644251
0.172198 0.310063 0.603677
0.165713 0.309407 0.604685
0.392111 0.326467 0.637873
0.831952 0.343542 0.687297
0.827497 0.305348 0.646601
0.184527 0.810544 0.795819
0.185962 0.813275 0.798596
0.186374 0.814069 0.799237
0.891844 0.865736 0.845426
0.93373 0.846159 0.783352
0.187579 0.843061 0.785824
0.188891 0.843717 0.789761
0.189334 0.843946 0.791119
0.188602 0.843626 0.788907
0.925856 0.903609 0.732158
0.182498 0.274464 0.605753
0.182498 0.274464 0.605753
0.182498 0.274464 0.605753
0.807019 0.325795 0.70692
0.828794 0.326345 0.708644
0.182589 0.274495 0.605829
0.182589 0.274495 0.605829
0.182589 0.274495 0.605829
0.810346 0.325933 0.707271
0.828794 0.326406 0.708782
0.182589 0.274495 0.605829
0.182589 0.274495 0.605829
0.182589 0.274495 0.605829
0.809903 0.325933 0.707317
0.828809 0.326421 0.708858
0.166629 0.693721 0.810132
0.167239 0.701595 0.811948
0.167361 0.704555 0.812619
0.834211 0.728618 0.865263
0.917403 0.632746 0.837018
0.194751 0.85034 0.831189
0.194751 0.850462 0.831266
0.194751 0.850507 0.831266
0.194751 0.850507 0.831266
0.934783 0.920851 0.910979
