cdn/LUTs/Dune Sony.cube
TITLE "Generated by Resolve"
LUT_3D_SIZE 9
0.0232853 0.0236362 0.024979
0.0258793 0.0247044 0.0261082
0.0650645 0.0336614 0.0341039
0.219181 0.0570687 0.0475319
0.440696 0.0937362 0.059968
0.595773 0.117525 0.0717021
0.648981 0.122072 0.0740063
0.65243 0.122377 0.0740673
0.652903 0.122423 0.0740673
0.0269322 0.0295415 0.0295262
0.0287633 0.030457 0.0308995
0.0619211 0.0363928 0.0352636
0.221637 0.0587625 0.0478523
0.449027 0.0948043 0.0606088
0.60029 0.117922 0.071931
0.649454 0.122118 0.0740063
0.652476 0.122377 0.0740673
0.652903 0.122423 0.0740673
0.03682 0.0616617 0.0505379
0.0372473 0.0624094 0.0510109
0.065507 0.0739452 0.0543679
0.228275 0.098146 0.056672
0.446952 0.0963149 0.0605631
0.600931 0.117983 0.0719463
0.649561 0.122133 0.0740063
0.652476 0.122377 0.0740673
0.652903 0.122423 0.0740673
0.0606394 0.197162 0.134417
0.0613107 0.200656 0.1364
0.0614939 0.201328 0.136782
0.19968 0.225315 0.123735
0.475364 0.233478 0.0991684
0.628336 0.222049 0.0948196
0.654459 0.14081 0.0771038
0.652476 0.122377 0.0740673
0.652903 0.122423 0.0740673
0.10251 0.3691 0.225254
0.103655 0.373297 0.227253
0.104005 0.374624 0.227909
0.104051 0.374792 0.227985
0.484703 0.424872 0.20412
0.702541 0.428763 0.189746
0.750835 0.408835 0.182177
0.727962 0.350103 0.151751
0.652964 0.122667 0.0741283
0.14284 0.533364 0.290257
0.143954 0.537316 0.291478
0.144442 0.538857 0.291951
0.144656 0.539635 0.292195
0.258274 0.534539 0.282551
0.696651 0.614816 0.272953
0.811017 0.62359 0.28098
0.815534 0.611322 0.279637
0.803082 0.550286 0.254154
0.183383 0.633204 0.315435
0.183841 0.634256 0.315587
0.184039 0.634699 0.315648
0.184146 0.634989 0.315694
0.184192 0.635096 0.315724
0.383093 0.657908 0.301213
0.810636 0.736522 0.322164
0.820294 0.735637 0.321584
0.820523 0.730877 0.319615
0.192004 0.651102 0.317693
0.192065 0.651255 0.317708
0.192111 0.651316 0.317708
0.192111 0.651316 0.317708
0.192172 0.651362 0.317723
0.192172 0.651362 0.317723
0.490974 0.69691 0.309743
0.820539 0.756802 0.329107
0.821469 0.756786 0.329107
0.193484 0.653498 0.317937
0.193484 0.653498 0.317937
0.193484 0.653498 0.317937
0.193484 0.653498 0.317937
0.193484 0.653498 0.317937
0.193484 0.653498 0.317937
0.193545 0.653498 0.317937
0.587671 0.717952 0.314931
0.821454 0.759182 0.329885
0.0241855 0.0246128 0.0286564
0.0272679 0.0262303 0.0299992
0.0656138 0.0335699 0.0360418
0.219425 0.0565499 0.048127
0.441291 0.0937362 0.0603342
0.59617 0.117556 0.0717174
0.649027 0.122087 0.0740063
0.65243 0.122377 0.0740673
0.652903 0.122423 0.0740673
0.0277104 0.0307774 0.0331579
0.0316014 0.0345312 0.0373541
0.0621958 0.0357671 0.0369268
0.222156 0.0579385 0.0484627
0.449897 0.0948653 0.0610056
0.600824 0.117968 0.0719463
0.6495 0.122118 0.0740063
0.652476 0.122377 0.0740673
0.652903 0.122423 0.0740673
0.0368505 0.0620279 0.051667
0.0372625 0.0628977 0.0522316
0.0651865 0.073518 0.0554818
0.228382 0.0963149 0.0566415
0.448066 0.0962387 0.060914
0.601511 0.118044 0.0719615
0.649668 0.122133 0.0740063
0.652476 0.122377 0.0740673
0.652903 0.122423 0.0740673
0.0605783 0.197024 0.134417
0.0612802 0.200519 0.13637
0.0614023 0.20119 0.136751
0.200305 0.225376 0.12372
0.476616 0.233722 0.0992142
0.629099 0.22211 0.0949416
0.65391 0.138705 0.0767071
0.652537 0.122377 0.0740673
0.652903 0.122423 0.0740673
0.1028 0.370153 0.225757
0.103883 0.374182 0.227695
0.10428 0.375662 0.228397
0.105257 0.37586 0.228397
0.486061 0.426047 0.204593
0.703792 0.429953 0.19028
0.751385 0.410071 0.182788
0.728359 0.350973 0.152193
0.653025 0.122927 0.0741436
0.143236 0.534646 0.290654
0.144335 0.538521 0.291844
0.144778 0.540154 0.292348
0.145006 0.540917 0.292592
0.257359 0.535882 0.283177
0.698116 0.616251 0.273487
0.811139 0.624933 0.2813
0.815641 0.612711 0.279988
0.803555 0.552209 0.254978
0.183536 0.633539 0.315496
0.183993 0.634592 0.315633
0.184192 0.635035 0.315709
0.18436 0.635325 0.315755
0.184405 0.635493 0.315785
0.381338 0.657771 0.301244
0.81091 0.737087 0.322393
0.820401 0.736187 0.321798
0.820569 0.731579 0.319905
0.192004 0.651148 0.317693
0.192126 0.651255 0.317708
0.192111 0.651316 0.317708
0.192172 0.651362 0.317723
0.192172 0.651423 0.317723
0.192172 0.651423 0.317723
0.494347 0.697673 0.309895
0.820539 0.756863 0.329122
0.821469 0.756848 0.329122
0.193484 0.653498 0.317937
0.193484 0.653498 0.317937
0.193484 0.653498 0.317937
0.193484 0.653498 0.317937
0.193545 0.653498 0.317937
0.193545 0.653498 0.317937
0.193545 0.653498 0.317937
0.607065 0.721843 0.315908
0.821454 0.759243 0.3299
0.0291447 0.0318761 0.0604868
0.0328985 0.0335393 0.061387
0.080766 0.0433204 0.0766003
0.240513 0.0519875 0.0736095
0.440543 0.0917525 0.0705882
0.596094 0.117464 0.0720073
0.649027 0.122087 0.0740063
0.65243 0.122377 0.0740673
0.652903 0.122423 0.0740673
0.0302739 0.0349889 0.0623941
0.0319677 0.0358129 0.0629129
0.0762341 0.0457313 0.0785992
0.245441 0.0528878 0.076997
0.44976 0.0924392 0.0719768
0.600916 0.117906 0.0722057
0.6495 0.122118 0.0740063
0.652476 0.122377 0.0740673
0.652903 0.122423 0.0740673
0.0395209 0.0764477 0.0824292
0.0401007 0.0776532 0.0833906
0.0819867 0.0966964 0.104631
0.237613 0.0778821 0.0747387
0.448112 0.0942245 0.0714275
0.601801 0.117998 0.0722057
0.649668 0.122133 0.0740063
0.652476 0.122377 0.0740673
0.652903 0.122423 0.0740673
0.055314 0.1991 0.142748
0.0559243 0.203021 0.145037
0.0562905 0.202853 0.144488
0.20267 0.225376 0.128832
0.475914 0.231861 0.0992294
0.628595 0.219562 0.0942397
0.653132 0.135714 0.0762188
0.652537 0.122377 0.0740673
0.652903 0.122423 0.0740673
0.102708 0.369909 0.22565
0.103777 0.373831 0.227527
0.104189 0.375311 0.228229
0.106035 0.375799 0.22829
0.486198 0.425971 0.204547
0.704051 0.429786 0.190188
0.751369 0.409888 0.182696
0.728252 0.350729 0.152071
0.653025 0.122927 0.0741436
0.143359 0.534905 0.29073
0.144472 0.538857 0.291951
0.144961 0.54049 0.292454
0.14519 0.541268 0.292683
0.256199 0.536217 0.283421
0.698695 0.616831 0.273686
0.811139 0.625437 0.281422
0.815686 0.613245 0.280125
0.803693 0.552804 0.255222
0.183581 0.633646 0.31548
0.184039 0.634699 0.315648
0.184298 0.635203 0.31574
0.184405 0.635493 0.315785
0.184451 0.63566 0.315801
0.380484 0.657649 0.301244
0.811063 0.737331 0.322484
0.820432 0.736492 0.321935
0.8206 0.731884 0.320027
0.192004 0.651148 0.317693
0.192111 0.651316 0.317708
0.192172 0.651362 0.317723
0.192172 0.651423 0.317723
0.192172 0.651423 0.317723
0.192172 0.651423 0.317723
0.495094 0.697826 0.309926
0.820539 0.756863 0.329122
0.821469 0.756848 0.329122
0.193484 0.653498 0.317937
0.193484 0.653498 0.317937
0.193484 0.653498 0.317937
0.193545 0.653498 0.317937
0.193545 0.653498 0.317937
0.193545 0.653559 0.317952
0.193545 0.653559 0.317952
0.617212 0.723766 0.316503
0.821454 0.759243 0.3299
0.0488136 0.0725261 0.179171
0.0555428 0.0741588 0.180438
0.101472 0.0840925 0.196582
0.302342 0.0949264 0.212375
0.508171 0.0986954 0.200092
0.637964 0.0959335 0.147555
0.649042 0.122072 0.0740673
0.65243 0.122377 0.0740673
0.652903 0.122423 0.0740673
0.0486305 0.073228 0.180835
0.0531014 0.0749981 0.183505
0.0953841 0.0852674 0.199832
0.307179 0.0976272 0.218463
0.52018 0.102174 0.208286
0.644617 0.0975662 0.154528
0.649516 0.122118 0.0740673
0.652476 0.122377 0.0740673
0.652903 0.122423 0.0740673
0.048127 0.0871595 0.1888
0.0488594 0.0881361 0.191058
0.0799573 0.0920577 0.195758
0.294667 0.101274 0.220188
0.520027 0.102647 0.209674
0.645991 0.0979629 0.156207
0.649683 0.122118 0.0740673
0.652476 0.122377 0.0740673
0.652903 0.122423 0.0740673
0.0605173 0.236576 0.230976
0.0610361 0.240986 0.234211
0.0614786 0.241672 0.234195
0.259297 0.258076 0.246281
0.488334 0.2495 0.213596
0.65742 0.187701 0.160922
0.651102 0.128069 0.0748302
0.652537 0.122377 0.0740673
0.652903 0.122423 0.0740673
0.0957809 0.426444 0.298329
0.0976577 0.431952 0.302495
0.0985275 0.4336 0.303487
0.1019 0.432914 0.302007
0.503166 0.451942 0.290944
0.709941 0.429557 0.204929
0.750439 0.407614 0.181567
0.726665 0.347265 0.150286
0.653025 0.122881 0.0741741
0.147005 0.55967 0.334768
0.149111 0.565835 0.338521
0.149386 0.567666 0.339376
0.148318 0.566278 0.337285
0.2551 0.568551 0.323873
0.699367 0.616663 0.274052
0.811215 0.625284 0.281422
0.815671 0.612985 0.280064
0.803433 0.551965 0.254749
0.185321 0.635798 0.320592
0.185855 0.636591 0.32018
0.18613 0.636774 0.319417
0.186236 0.636057 0.317235
0.186236 0.635904 0.316411
0.379629 0.657481 0.301228
0.811063 0.737408 0.322515
0.820432 0.736584 0.321965
0.820615 0.732036 0.320104
0.192065 0.651148 0.317693
0.192111 0.651316 0.317708
0.192172 0.651362 0.317723
0.192172 0.651423 0.317723
0.192172 0.651423 0.317723
0.192233 0.651469 0.317739
0.497902 0.69839 0.310033
0.820539 0.756863 0.329122
0.821469 0.756848 0.329122
0.193484 0.653498 0.317937
0.193484 0.653498 0.317937
0.193484 0.653498 0.317937
0.193545 0.653498 0.317937
0.193545 0.653559 0.317952
0.193545 0.653559 0.317952
0.193545 0.653559 0.317952
0.624491 0.725048 0.316991
0.821454 0.759243 0.3299
0.0944228 0.151324 0.343267
0.096025 0.151369 0.343099
0.128328 0.155444 0.344915
0.316655 0.167575 0.364034
0.553109 0.182055 0.373785
0.70631 0.171695 0.358877
0.740246 0.14725 0.30277
0.65243 0.122377 0.0740673
0.652903 0.122423 0.0740673
0.0953994 0.152773 0.346075
0.0961318 0.153628 0.347692
0.124071 0.157549 0.350286
0.321599 0.171633 0.372152
0.563851 0.187243 0.383413
0.714488 0.17644 0.369146
0.745022 0.152148 0.314092
0.652476 0.122377 0.0740673
0.652903 0.122423 0.0740673
0.0951247 0.152483 0.345495
0.0959945 0.153765 0.347982
0.112505 0.156161 0.349859
0.309667 0.171572 0.372976
0.563943 0.188479 0.385916
0.716381 0.177676 0.371847
0.746365 0.153613 0.317403
0.652644 0.122225 0.0747539
0.652903 0.122423 0.0740673
0.0778058 0.243351 0.384527
0.0786297 0.248188 0.388205
0.0792554 0.248249 0.388617
0.223239 0.24416 0.373358
0.551797 0.268162 0.395193
0.724697 0.206912 0.374929
0.746563 0.153903 0.317845
0.652949 0.121981 0.0758068
0.652903 0.122423 0.0740673
0.139055 0.459632 0.425818
0.138781 0.464973 0.430625
0.138216 0.466773 0.43212
0.140383 0.467277 0.432044
0.531807 0.494606 0.458701
0.75848 0.474388 0.417823
0.816388 0.41709 0.336355
0.721462 0.334783 0.145434
0.652995 0.122789 0.0741588
0.163668 0.644678 0.484871
0.165774 0.65008 0.490028
0.166827 0.652201 0.491875
0.167468 0.65301 0.492134
0.266941 0.659281 0.492882
0.760357 0.684077 0.485924
0.876829 0.665446 0.389746
0.815915 0.611292 0.2804
0.80238 0.548226 0.252857
0.242008 0.75111 0.500053
0.243671 0.754284 0.504753
0.2439 0.755444 0.506294
0.243915 0.755734 0.506249
0.24329 0.754299 0.502815
0.457755 0.772656 0.495781
0.849332 0.777859 0.383795
0.820432 0.736416 0.321904
0.8206 0.731884 0.320027
0.222812 0.729595 0.434958
0.225055 0.73373 0.440726
0.225589 0.735042 0.442496
0.225299 0.734752 0.442039
0.223194 0.731212 0.436973
0.215045 0.716518 0.416526
0.504997 0.712489 0.322728
0.8206 0.756863 0.329122
0.821469 0.756909 0.329152
0.193484 0.653498 0.317937
0.193484 0.653498 0.317937
0.193545 0.653529 0.318013
0.193545 0.653574 0.318105
0.193545 0.65362 0.31809
0.193545 0.653559 0.317952
0.193545 0.653559 0.317952
0.630091 0.72604 0.317388
0.821454 0.759243 0.3299
0.141619 0.224338 0.489143
0.141711 0.224491 0.489479
0.142504 0.224094 0.488426
0.270512 0.237919 0.512459
0.548089 0.260212 0.539483
0.745647 0.270893 0.553735
0.808942 0.251804 0.535378
0.797818 0.22266 0.472633
0.652903 0.122423 0.0740673
0.142397 0.225635 0.491981
0.142779 0.226307 0.493477
0.142763 0.22623 0.493278
0.270512 0.240513 0.517937
0.558679 0.26453 0.548898
0.753094 0.274998 0.564157
0.812848 0.260151 0.548592
0.80145 0.228321 0.485786
0.653117 0.12221 0.0749828
0.142306 0.225528 0.491783
0.142885 0.22649 0.493874
0.142977 0.226673 0.494285
0.258106 0.240299 0.515862
0.558221 0.26537 0.551003
0.754894 0.276326 0.567529
0.814145 0.263066 0.553063
0.802533 0.230152 0.490074
0.653681 0.12166 0.076936
0.141283 0.22536 0.491569
0.14197 0.226535 0.494148
0.14229 0.227359 0.495155
0.214633 0.236576 0.505211
0.546929 0.265156 0.550484
0.754116 0.276875 0.568856
0.814771 0.264469 0.555245
0.803067 0.231067 0.492226
0.653529 0.121813 0.0764935
0.131273 0.47657 0.600168
0.133104 0.481559 0.605768
0.133867 0.483284 0.607889
0.134371 0.48365 0.608484
0.490913 0.484672 0.597864
0.795804 0.505577 0.624552
0.873793 0.459876 0.600092
0.838575 0.353933 0.513771
0.653269 0.122072 0.0756085
0.152743 0.670924 0.642939
0.153857 0.675837 0.648371
0.15436 0.678157 0.650813
0.154559 0.679149 0.651728
0.179812 0.68072 0.652811
0.773144 0.718532 0.687572
0.914733 0.689754 0.639628
0.914977 0.658167 0.560525
0.798779 0.533867 0.246342
0.179812 0.789914 0.662409
0.180316 0.792432 0.66717
0.180545 0.793561 0.669215
0.180682 0.794049 0.670039
0.181003 0.794202 0.669688
0.394064 0.812268 0.685069
0.897856 0.844266 0.672114
0.921828 0.834714 0.571374
0.820691 0.731395 0.320012
0.216724 0.814755 0.654261
0.21384 0.815732 0.658412
0.212451 0.816175 0.66041
0.211765 0.816495 0.661448
0.211887 0.816434 0.661173
0.213794 0.81593 0.658152
0.542062 0.85449 0.661234
0.915465 0.871656 0.520546
0.82153 0.756924 0.329229
0.245533 0.807095 0.602457
0.243336 0.80824 0.607019
0.242191 0.808728 0.609094
0.241566 0.808927 0.609995
0.241596 0.808713 0.609232
0.243076 0.807309 0.603815
0.248539 0.801373 0.581598
0.672175 0.797925 0.396994
0.821454 0.759243 0.3299
0.166918 0.263416 0.578836
0.166995 0.263508 0.579049
0.166827 0.263325 0.578637
0.16672 0.263111 0.578103
0.487816 0.290684 0.63006
0.742977 0.312581 0.667796
0.821927 0.313619 0.670604
0.827268 0.311696 0.664942
0.827161 0.301244 0.634623
0.167452 0.263981 0.580148
0.167727 0.264271 0.58085
0.167727 0.264271 0.58085
0.167636 0.264179 0.580636
0.498039 0.292607 0.63444
0.750362 0.313893 0.671763
0.822812 0.314885 0.674327
0.82742 0.313176 0.6692
0.827329 0.303685 0.641749
0.167452 0.263996 0.580224
0.167819 0.264378 0.581109
0.167895 0.264469 0.581323
0.167895 0.264439 0.581262
0.495262 0.292638 0.634745
0.752194 0.314305 0.673014
0.823117 0.315328 0.675639
0.827482 0.313726 0.670787
0.827451 0.30454 0.644251
0.167361 0.26389 0.57995
0.167803 0.264363 0.581048
0.16791 0.2645 0.581384
0.167987 0.26453 0.58146
0.4766 0.291066 0.631937
0.751232 0.314458 0.673411
0.82327 0.315541 0.676295
0.827512 0.314031 0.671656
0.827451 0.305058 0.645747
0.172198 0.310063 0.603677
0.16791 0.3093 0.604196
0.165713 0.309407 0.604685
0.164828 0.308797 0.604425
0.392111 0.326467 0.637873
0.757931 0.36376 0.692409
0.831952 0.343542 0.687297
0.828473 0.317342 0.67335
0.827497 0.305348 0.646601
0.171252 0.671275 0.776959
0.171023 0.675776 0.779416
0.170932 0.677852 0.78056
0.170855 0.678843 0.781125
0.17792 0.679164 0.781933
0.744549 0.703563 0.823911
0.919081 0.705119 0.825422
0.927535 0.686427 0.813123
0.916152 0.601541 0.753368
0.184527 0.810544 0.795819
0.185519 0.812436 0.797711
0.185962 0.813275 0.798596
0.186252 0.813825 0.799054
0.186374 0.814069 0.799237
0.321248 0.82034 0.808026
0.891844 0.865736 0.845426
0.92874 0.86067 0.831464
0.93373 0.846159 0.783352
0.190219 0.839307 0.793606
0.190661 0.839872 0.79556
0.19086 0.840131 0.796475
0.190997 0.840345 0.79704
0.191073 0.840452 0.797375
0.191012 0.840421 0.797131
0.480293 0.868498 0.820371
0.919692 0.903548 0.824201
0.926101 0.898543 0.766857
0.187579 0.843061 0.785824
0.188434 0.843488 0.788418
0.188891 0.843717 0.789761
0.189212 0.84387 0.790738
0.189334 0.843946 0.791119
0.189273 0.843915 0.790921
0.188602 0.843626 0.788907
0.658625 0.888624 0.811597
0.925856 0.903609 0.732158
0.180163 0.273167 0.602548
0.180163 0.273182 0.602625
0.180163 0.273167 0.602548
0.180072 0.273152 0.602533
0.180072 0.273121 0.602472
0.696315 0.321538 0.692058
0.821881 0.324636 0.703319
0.828046 0.324605 0.703365
0.828717 0.3243 0.70248
0.180255 0.273243 0.602762
0.180362 0.273289 0.602853
0.180362 0.273289 0.602853
0.180362 0.273289 0.602853
0.180545 0.273274 0.602823
0.707149 0.322515 0.694179
0.822721 0.324849 0.70396
0.828122 0.324819 0.704021
0.828748 0.324544 0.703197
0.180255 0.273243 0.602762
0.180362 0.273304 0.602914
0.180362 0.273304 0.602914
0.180362 0.273304 0.602914
0.183993 0.273686 0.603479
0.709239 0.322698 0.694575
0.82298 0.324926 0.704204
0.828199 0.324895 0.70425
0.828748 0.324666 0.703563
0.180255 0.273243 0.602762
0.180362 0.273304 0.602914
0.180362 0.273304 0.602914
0.180453 0.27332 0.60293
0.183993 0.273686 0.603479
0.706447 0.322545 0.694286
0.823102 0.324926 0.70428
0.828199 0.324941 0.704387
0.828748 0.324712 0.703716
0.180255 0.273228 0.602701
0.180362 0.273289 0.602853
0.180362 0.273304 0.602914
0.180453 0.27335 0.603006
0.180636 0.273365 0.603037
0.69163 0.321492 0.692119
0.822919 0.324941 0.704326
0.828199 0.324971 0.704463
0.828763 0.324758 0.703853
0.163455 0.508064 0.729137
0.166445 0.510323 0.730266
0.167422 0.511788 0.730983
0.168032 0.51252 0.731426
0.168765 0.511315 0.730831
0.629374 0.524834 0.768093
0.886168 0.528878 0.794003
0.865232 0.438071 0.752087
0.8374 0.350027 0.714412
0.181476 0.805753 0.826413
0.182315 0.807874 0.826841
0.182742 0.808713 0.826947
0.183017 0.809262 0.827054
0.1832 0.809613 0.827146
0.209186 0.810468 0.828885
0.884825 0.856992 0.889281
0.930922 0.855894 0.890425
0.935119 0.845701 0.88896
0.19472 0.844495 0.826825
0.19472 0.844846 0.82707
0.19472 0.845029 0.827237
0.19472 0.84509 0.827314
0.19472 0.845197 0.827314
0.19472 0.845212 0.827405
0.427863 0.865431 0.851484
0.924773 0.910338 0.896406
0.932067 0.910552 0.895567
0.194858 0.849561 0.826596
0.194858 0.849683 0.826917
0.194842 0.849699 0.827008
0.194842 0.849714 0.827085
0.194842 0.849775 0.827161
0.194842 0.84979 0.827237
0.194842 0.849775 0.827161
0.64152 0.892287 0.872999
0.931563 0.918502 0.895582
0.182498 0.274464 0.605753
0.182498 0.274464 0.605753
0.182498 0.274464 0.605753
0.182498 0.274464 0.605753
0.182498 0.274464 0.605753
0.182498 0.274464 0.605753
0.807019 0.325795 0.70692
0.828031 0.32636 0.708644
0.828794 0.326345 0.708644
0.182589 0.274495 0.605829
0.182589 0.274495 0.605829
0.182589 0.274495 0.605829
0.182589 0.274495 0.605829
0.182589 0.274495 0.605829
0.18912 0.275196 0.606958
0.809445 0.325902 0.707195
0.828107 0.32639 0.708736
0.828794 0.326375 0.708705
0.182589 0.274495 0.605829
0.182589 0.274495 0.605829
0.182589 0.274495 0.605829
0.182589 0.274495 0.605829
0.182589 0.274495 0.605829
0.188754 0.275166 0.606897
0.810346 0.325933 0.707271
0.828168 0.326421 0.708812
0.828794 0.326406 0.708782
0.182589 0.274495 0.605829
0.182589 0.274495 0.605829
0.182589 0.274495 0.605829
0.182589 0.274495 0.605829
0.182589 0.274495 0.605829
0.186145 0.274876 0.606439
0.810666 0.325963 0.707378
0.828168 0.326421 0.708812
0.828809 0.326421 0.708858
0.182589 0.274495 0.605829
0.182589 0.274495 0.605829
0.182589 0.274495 0.605829
0.182589 0.274495 0.605829
0.182589 0.274495 0.605829
0.184268 0.274678 0.606119
0.809903 0.325933 0.707317
0.828168 0.326421 0.708812
0.828809 0.326421 0.708858
0.182589 0.274495 0.605829
0.182589 0.274495 0.605829
0.182589 0.274495 0.605829
0.182589 0.274495 0.605829
0.182589 0.274495 0.605829
0.182681 0.27451 0.605844
0.804639 0.32575 0.706859
0.828168 0.326421 0.708812
0.828809 0.326421 0.708858
0.166629 0.693721 0.810132
0.16701 0.698375 0.8112
0.167239 0.701595 0.811948
0.167407 0.703548 0.81239
0.167361 0.704555 0.812619
0.166979 0.704128 0.812482
0.834211 0.728618 0.865263
0.929458 0.717586 0.865888
0.917403 0.632746 0.837018
0.194614 0.843442 0.831052
0.194614 0.843854 0.831128
0.194629 0.844053 0.831128
0.194629 0.844205 0.831128
0.194629 0.844327 0.831205
0.194629 0.844373 0.831205
0.232883 0.846067 0.833432
0.923873 0.908736 0.905852
0.933898 0.909377 0.908156
0.194751 0.85034 0.831189
0.194751 0.850401 0.831266
0.194751 0.850462 0.831266
0.194751 0.850462 0.831266
0.194751 0.850507 0.831266
0.194751 0.850507 0.831266
0.194751 0.850507 0.831266
0.592325 0.88925 0.875669
0.934783 0.920851 0.910979
