cdn/LUTs/Dune Sony.cube
TITLE "Generated by Resolve"
LUT_3D_SIZE 17
0.0232853 0.0236362 0.024979
0.0242008 0.0242618 0.0256962
0.0258793 0.0247044 0.0261082
0.035996 0.0273136 0.028687
0.0650645 0.0336614 0.0341039
0.120272 0.0430762 0.0413825
0.219181 0.0570687 0.0475319
0.328878 0.080354 0.0532082
0.440696 0.0937362 0.059968
0.537102 0.111772 0.0681621
0.595773 0.117525 0.0717021
0.633951 0.120806 0.0734264
0.648981 0.122072 0.0740063
0.651682 0.122316 0.0740673
0.65243 0.122377 0.0740673
0.65275 0.122408 0.0740673
0.652903 0.122423 0.0740673
0.0245518 0.0257267 0.0266117
0.0254673 0.0263828 0.0273899
0.0267643 0.0264439 0.0276341
0.0351263 0.0278477 0.0289158
0.0644083 0.0342565 0.0343481
0.121538 0.0436713 0.0416266
0.223438 0.0579538 0.0477455
0.334142 0.081529 0.0535134
0.447456 0.0945296 0.0604715
0.54168 0.112291 0.0684367
0.599222 0.117815 0.07187
0.635599 0.120943 0.0735027
0.649302 0.122103 0.0740063
0.651789 0.122316 0.0740673
0.652476 0.122377 0.0740673
0.652796 0.122408 0.0740673
0.652903 0.122423 0.0740673
0.0269322 0.0295415 0.0295262
0.0274052 0.0299382 0.0299687
0.0287633 0.030457 0.0308995
0.0344549 0.0308537 0.03093
0.0619211 0.0363928 0.0352636
0.119265 0.0447242 0.0417487
0.221637 0.0587625 0.0478523
0.334112 0.0817426 0.0535286
0.449027 0.0948043 0.0606088
0.542916 0.112428 0.0684977
0.60029 0.117922 0.071931
0.636179 0.121004 0.0735332
0.649454 0.122118 0.0740063
0.651789 0.122316 0.0740673
0.652476 0.122377 0.0740673
0.652796 0.122408 0.0740673
0.652903 0.122423 0.0740673
0.0299077 0.0367742 0.0343328
0.0300298 0.0369726 0.0344701
0.0308995 0.0378424 0.0353246
0.036347 0.0406348 0.0373083
0.0639963 0.0459144 0.040177
0.121538 0.0512093 0.0438239
0.221607 0.0647593 0.0489662
0.333028 0.0830396 0.0535744
0.448737 0.0947585 0.0605631
0.543359 0.112474 0.068513
0.600824 0.117968 0.0719463
0.636561 0.121035 0.0735485
0.6495 0.122118 0.0740063
0.65185 0.122316 0.0740673
0.652476 0.122377 0.0740673
0.652796 0.122408 0.0740673
0.652903 0.122423 0.0740673
0.03682 0.0616617 0.0505379
0.0369573 0.0623484 0.0509651
0.0372473 0.0624094 0.0510109
0.0391852 0.0628519 0.0513619
0.065507 0.0739452 0.0543679
0.130739 0.0796674 0.0542
0.228275 0.098146 0.056672
0.336126 0.105104 0.057023
0.446952 0.0963149 0.0605631
0.543145 0.112474 0.068452
0.600931 0.117983 0.0719463
0.636667 0.121035 0.073579
0.649561 0.122133 0.0740063
0.65185 0.122316 0.0740673
0.652476 0.122377 0.0740673
0.652796 0.122408 0.0740673
0.652903 0.122423 0.0740673
0.0454566 0.110292 0.080827
0.0457008 0.111833 0.0818036
0.0458076 0.112352 0.0821088
0.0460365 0.112566 0.0822003
0.053666 0.114168 0.0821393
0.113771 0.133639 0.0819409
0.236225 0.147753 0.0765545
0.350683 0.154726 0.0711223
0.45211 0.152804 0.0704967
0.546822 0.135637 0.0716259
0.600656 0.118364 0.0717327
0.636652 0.12105 0.073518
0.649607 0.122133 0.0740063
0.65185 0.122316 0.0740673
0.652476 0.122377 0.0740673
0.652796 0.122408 0.0740673
0.652903 0.122423 0.0740673
0.0606394 0.197162 0.134417
0.0611276 0.199634 0.135821
0.0613107 0.200656 0.1364
0.0614023 0.20116 0.13669
0.0614939 0.201328 0.136782
0.0894942 0.201556 0.13225
0.19968 0.225315 0.123735
0.364355 0.229908 0.105318
0.475364 0.233478 0.0991684
0.568215 0.239445 0.0992142
0.628336 0.222049 0.0948196
0.656458 0.19237 0.0864424
0.654459 0.14081 0.0771038
0.651835 0.122332 0.0740063
0.652476 0.122377 0.0740673
0.652796 0.122408 0.0740673
0.652903 0.122423 0.0740673
0.0786145 0.282979 0.181155
0.0792859 0.285649 0.182559
0.0795911 0.286854 0.1832
0.0797436 0.287449 0.183505
0.0798657 0.287877 0.183734
0.0799115 0.287968 0.18378
0.167926 0.297734 0.16582
0.349264 0.325124 0.164492
0.4963 0.331701 0.151049
0.597086 0.3308 0.14403
0.666941 0.328695 0.140352
0.697597 0.31725 0.135088
0.700984 0.296208 0.124178
0.6878 0.252232 0.105562
0.657923 0.143114 0.0776074
0.652857 0.122408 0.0740673
0.652903 0.122423 0.0740673
0.10251 0.3691 0.225254
0.103273 0.371893 0.226596
0.103655 0.373297 0.227253
0.103853 0.37409 0.227649
0.104005 0.374624 0.227909
0.104051 0.374792 0.227985
0.104051 0.374792 0.227985
0.308965 0.399832 0.201938
0.484703 0.424872 0.20412
0.617502 0.435004 0.19881
0.702541 0.428763 0.189746
0.741772 0.421027 0.188495
0.750835 0.408835 0.182177
0.745007 0.389334 0.172168
0.727962 0.350103 0.151751
0.682521 0.231189 0.098558
0.652964 0.122667 0.0741283
0.124498 0.452918 0.261936
0.1252 0.455726 0.26305
0.125566 0.457053 0.263554
0.125811 0.458015 0.263935
0.125933 0.458534 0.264134
0.126055 0.458976 0.264317
0.126085 0.459159 0.264378
0.180728 0.456748 0.260487
0.427817 0.501915 0.240803
0.599313 0.522713 0.240024
0.721248 0.533837 0.241016
0.777432 0.530526 0.243641
0.791501 0.52163 0.23978
0.790539 0.509621 0.233433
0.784192 0.488746 0.222416
0.768795 0.44593 0.200717
0.719676 0.331502 0.142107
0.14284 0.533364 0.290257
0.143587 0.535943 0.291051
0.143954 0.537316 0.291478
0.144228 0.53817 0.291737
0.144442 0.538857 0.291951
0.144564 0.539376 0.292119
0.144656 0.539635 0.292195
0.144686 0.539803 0.292241
0.258274 0.534539 0.282551
0.537224 0.595773 0.27303
0.696651 0.614816 0.272953
0.786236 0.624308 0.277623
0.811017 0.62359 0.28098
0.814832 0.619516 0.281071
0.815534 0.611322 0.279637
0.81471 0.594614 0.275639
0.803082 0.550286 0.254154
0.165972 0.59971 0.30901
0.166766 0.60116 0.309316
0.167254 0.602106 0.309529
0.167559 0.602686 0.309651
0.167727 0.603052 0.309728
0.16791 0.603403 0.309804
0.168032 0.603632 0.30985
0.168093 0.603769 0.30988
0.168093 0.603769 0.30988
0.328817 0.610651 0.29752
0.641993 0.674067 0.299428
0.773251 0.691264 0.304036
0.812161 0.694163 0.305333
0.816388 0.692424 0.304524
0.817197 0.689235 0.303227
0.817243 0.683314 0.300847
0.816739 0.670954 0.296101
0.183383 0.633204 0.315435
0.183688 0.63386 0.315526
0.183841 0.634256 0.315587
0.183948 0.634485 0.315618
0.184039 0.634699 0.315648
0.1841 0.634821 0.315679
0.184146 0.634989 0.315694
0.184192 0.635035 0.315709
0.184192 0.635096 0.315724
0.184253 0.635096 0.315709
0.383093 0.657908 0.301213
0.73167 0.725765 0.317937
0.810636 0.736522 0.322164
0.819181 0.736538 0.321981
0.820294 0.735637 0.321584
0.820661 0.734051 0.320928
0.820523 0.730877 0.319615
0.189578 0.647211 0.317296
0.189746 0.647425 0.317296
0.189792 0.647532 0.317311
0.189853 0.647578 0.317327
0.189899 0.647639 0.317327
0.189899 0.647684 0.317342
0.18996 0.647745 0.317342
0.18996 0.647791 0.317342
0.18996 0.647791 0.317342
0.18996 0.647791 0.317342
0.18996 0.647791 0.317342
0.442496 0.683436 0.307057
0.790799 0.749081 0.326207
0.81886 0.752697 0.327779
0.820798 0.752728 0.327794
0.821393 0.752544 0.327733
0.82153 0.752056 0.327581
0.192004 0.651102 0.317693
0.192065 0.651209 0.317708
0.192065 0.651255 0.317708
0.192126 0.651255 0.317708
0.192111 0.651316 0.317708
0.192111 0.651316 0.317708
0.192111 0.651316 0.317708
0.192111 0.651362 0.317723
0.192172 0.651362 0.317723
0.192172 0.651362 0.317723
0.192172 0.651362 0.317723
0.192172 0.651362 0.317723
0.490974 0.69691 0.309743
0.814221 0.756054 0.328817
0.820539 0.756802 0.329107
0.821271 0.756832 0.329122
0.821469 0.756786 0.329107
0.192935 0.652644 0.317861
0.192996 0.652705 0.317861
0.192996 0.652705 0.317861
0.192996 0.652705 0.317861
0.192981 0.652766 0.317876
0.193042 0.65275 0.317876
0.193042 0.65275 0.317876
0.193042 0.65275 0.317876
0.193042 0.65275 0.317876
0.193042 0.65275 0.317876
0.193042 0.65275 0.317876
0.193042 0.65275 0.317876
0.193042 0.65275 0.317876
0.538125 0.707851 0.311894
0.819501 0.758175 0.329534
0.821118 0.758389 0.32961
0.821454 0.758373 0.32961
0.193484 0.653498 0.317937
0.193484 0.653498 0.317937
0.193484 0.653498 0.317937
0.193484 0.653498 0.317937
0.193484 0.653498 0.317937
0.193484 0.653498 0.317937
0.193484 0.653498 0.317937
0.193484 0.653498 0.317937
0.193484 0.653498 0.317937
0.193484 0.653498 0.317937
0.193484 0.653498 0.317937
0.193545 0.653498 0.317937
0.193545 0.653498 0.317937
0.193545 0.653498 0.317937
0.587671 0.717952 0.314931
0.820768 0.759167 0.32987
0.821454 0.759182 0.329885
0.0236362 0.024033 0.0262608
0.0246891 0.0248112 0.0271611
0.0263371 0.0251926 0.0272374
0.0361944 0.0274205 0.0293278
0.0651408 0.0336309 0.0345464
0.120302 0.0429236 0.0415503
0.219516 0.0570382 0.0476387
0.329274 0.080415 0.0532235
0.44126 0.0937972 0.060029
0.537606 0.111833 0.0681773
0.596063 0.117556 0.0717174
0.634104 0.120821 0.0734264
0.649027 0.122087 0.0740063
0.651682 0.122316 0.0740673
0.65243 0.122377 0.0740673
0.65275 0.122408 0.0740673
0.652903 0.122423 0.0740673
0.0248875 0.026154 0.0278935
0.0260014 0.0270695 0.0289464
0.0276341 0.0273442 0.0292821
0.0353552 0.0280308 0.0296788
0.0645304 0.0341802 0.0347906
0.121599 0.0435035 0.041825
0.223774 0.0578622 0.0478828
0.334752 0.0816663 0.0535744
0.448188 0.0946365 0.0605173
0.542138 0.112337 0.068452
0.599481 0.117845 0.0718853
0.635706 0.120958 0.073518
0.649348 0.122118 0.0740063
0.651789 0.122316 0.0740673
0.652476 0.122377 0.0740673
0.652796 0.122408 0.0740673
0.652903 0.122423 0.0740673
0.0272984 0.0301061 0.0307774
0.027924 0.0307317 0.0314641
0.0299077 0.0320745 0.0331579
0.0349737 0.0313268 0.0320439
0.0619821 0.0362097 0.0356451
0.119387 0.0445411 0.0419165
0.222293 0.0586557 0.0480049
0.334798 0.0818189 0.0535897
0.449668 0.0949264 0.0606546
0.543481 0.11249 0.0685283
0.600656 0.117952 0.071931
0.636393 0.121019 0.0735332
0.6495 0.122118 0.0740063
0.65185 0.122316 0.0740673
0.652476 0.122377 0.0740673
0.652796 0.122408 0.0740673
0.652903 0.122423 0.0740673
0.0300755 0.0371405 0.0350042
0.0302586 0.0374456 0.0352483
0.0315709 0.0390784 0.0368505
0.0371405 0.0416571 0.0388495
0.0637369 0.0455177 0.0403601
0.121386 0.050721 0.0438544
0.221866 0.064271 0.0490272
0.333883 0.082887 0.0536355
0.449668 0.0949264 0.0606546
0.543938 0.112535 0.068574
0.60119 0.118013 0.0719463
0.636728 0.12105 0.073579
0.649561 0.122133 0.0740063
0.65185 0.122316 0.0740673
0.652476 0.122377 0.0740673
0.652796 0.122408 0.0740673
0.652903 0.122423 0.0740673
0.0367895 0.0616007 0.0506752
0.0369421 0.0622873 0.0511177
0.0372473 0.0625162 0.0512703
0.0391699 0.0629587 0.0516976
0.0654459 0.0737469 0.0545663
0.130648 0.0790875 0.0540932
0.22887 0.0977951 0.0566415
0.33669 0.104692 0.0569619
0.447776 0.0963607 0.0606241
0.54374 0.112535 0.0684977
0.601404 0.118029 0.0719615
0.636927 0.121065 0.073579
0.649607 0.122133 0.0740063
0.65185 0.122316 0.0740673
0.652476 0.122377 0.0740673
0.652796 0.122408 0.0740673
0.652903 0.122423 0.0740673
0.0453803 0.11014 0.080827
0.0456245 0.111696 0.0818036
0.045716 0.1122 0.0821088
0.0459449 0.112398 0.0822156
0.0532387 0.113985 0.0821851
0.113878 0.133486 0.0819104
0.237049 0.147662 0.076463
0.351354 0.154742 0.0711223
0.453025 0.152834 0.0705272
0.547372 0.135042 0.0715953
0.601038 0.118395 0.0717784
0.636866 0.12108 0.073518
0.649668 0.122133 0.0740063
0.65185 0.122316 0.0740673
0.652476 0.122377 0.0740673
0.652796 0.122408 0.0740673
0.652903 0.122423 0.0740673
0.0607004 0.197513 0.13463
0.0611887 0.200061 0.13608
0.061387 0.201083 0.13666
0.0615091 0.201602 0.13695
0.0615396 0.20177 0.137041
0.0893111 0.201938 0.13254
0.200549 0.225803 0.123888
0.365301 0.230426 0.105501
0.476493 0.234043 0.0993668
0.569024 0.240009 0.0993973
0.629007 0.222629 0.0950637
0.656886 0.192966 0.0866255
0.654246 0.13991 0.076936
0.651835 0.122332 0.0740063
0.652537 0.122377 0.0740673
0.652857 0.122408 0.0740673
0.652903 0.122423 0.0740673
0.0787518 0.283589 0.181491
0.0794232 0.286168 0.182834
0.0797436 0.287449 0.183505
0.079942 0.288228 0.183917
0.0800336 0.288563 0.1841
0.0800793 0.288655 0.184131
0.168521 0.298299 0.166079
0.35053 0.325902 0.164858
0.497505 0.332525 0.1514
0.598199 0.33167 0.144411
0.667689 0.329366 0.140719
0.698146 0.317876 0.135409
0.701274 0.296818 0.124468
0.688167 0.253162 0.105943
0.657588 0.141909 0.077409
0.652857 0.122408 0.0740673
0.652903 0.122423 0.0740673
0.102754 0.369985 0.225681
0.103487 0.372686 0.226963
0.103807 0.373922 0.227573
0.104067 0.374884 0.228031
0.104189 0.375311 0.228229
0.10428 0.375662 0.228397
0.104524 0.375677 0.228382
0.309316 0.400595 0.202319
0.485725 0.425757 0.204471
0.618494 0.435859 0.199161
0.703441 0.429679 0.190158
0.742321 0.421927 0.188952
0.751247 0.40972 0.182605
0.745373 0.390173 0.17261
0.728389 0.351049 0.152239
0.682582 0.231388 0.0986648
0.653025 0.122881 0.0741741
0.124712 0.453803 0.262287
0.125429 0.456519 0.263355
0.12578 0.457923 0.263905
0.126009 0.458808 0.26424
0.126146 0.459419 0.264485
0.126253 0.459861 0.264668
0.126284 0.460044 0.264729
0.181674 0.457572 0.260731
0.428244 0.502968 0.241184
0.600412 0.523705 0.240391
0.72221 0.534951 0.24152
0.778027 0.531746 0.244236
0.791836 0.522652 0.240314
0.790921 0.510719 0.234058
0.784573 0.489708 0.222965
0.769238 0.44712 0.201328
0.71986 0.331884 0.142306
0.143084 0.534218 0.290517
0.143816 0.536721 0.291295
0.144228 0.53817 0.291737
0.144488 0.539117 0.292027
0.144686 0.539803 0.292241
0.144778 0.540154 0.292348
0.144869 0.540413 0.292424
0.1449 0.540581 0.292485
0.257847 0.535363 0.282902
0.538277 0.596658 0.27332
0.697536 0.615671 0.273274
0.786755 0.625345 0.278096
0.811078 0.624506 0.281193
0.814878 0.620325 0.281209
0.815595 0.612284 0.279866
0.814786 0.595666 0.275914
0.803403 0.551598 0.254719
0.166217 0.600153 0.309102
0.167071 0.60174 0.309438
0.167483 0.602533 0.309621
0.167788 0.603113 0.309743
0.167971 0.603555 0.309834
0.168154 0.603845 0.309895
0.168276 0.604135 0.309957
0.168338 0.604212 0.309972
0.168399 0.604349 0.310002
0.328099 0.610834 0.298009
0.64303 0.674876 0.299748
0.773907 0.692042 0.304372
0.812253 0.694835 0.305592
0.816495 0.693095 0.304799
0.817258 0.689982 0.303517
0.817288 0.684077 0.301137
0.81677 0.671717 0.296391
0.18349 0.633433 0.31548
0.183795 0.634089 0.315557
0.183948 0.634485 0.315618
0.184039 0.63476 0.315663
0.184146 0.634928 0.315694
0.184192 0.635096 0.315724
0.184237 0.635203 0.31574
0.184298 0.635264 0.31574
0.18436 0.635325 0.315755
0.18436 0.635325 0.315755
0.381872 0.657755 0.301213
0.732418 0.726177 0.318074
0.810773 0.736843 0.322301
0.819272 0.736858 0.322103
0.820325 0.736019 0.321736
0.820691 0.734356 0.32105
0.820554 0.731258 0.319783
0.189639 0.647272 0.317311
0.189792 0.647471 0.317311
0.189853 0.647578 0.317327
0.189899 0.647684 0.317342
0.189899 0.647745 0.317342
0.18996 0.647791 0.317342
0.18996 0.647791 0.317342
0.190005 0.647852 0.317357
0.190005 0.647852 0.317357
0.190005 0.647852 0.317357
0.190005 0.647852 0.317357
0.442206 0.683421 0.307057
0.791287 0.749218 0.326253
0.81886 0.752758 0.327794
0.820798 0.752789 0.32781
0.821393 0.752605 0.327749
0.82153 0.752117 0.327596
0.192004 0.651148 0.317693
0.192065 0.651209 0.317708
0.192065 0.651255 0.317708
0.192111 0.651316 0.317708
0.192111 0.651316 0.317708
0.192111 0.651362 0.317723
0.192172 0.651362 0.317723
0.192172 0.651362 0.317723
0.192172 0.651362 0.317723
0.192172 0.651423 0.317723
0.192172 0.651423 0.317723
0.192172 0.651423 0.317723
0.49276 0.697292 0.309819
0.814298 0.756069 0.328817
0.820539 0.756802 0.329107
0.821271 0.756832 0.329122
0.821469 0.756786 0.329107
0.192935 0.652644 0.317861
0.192996 0.652705 0.317861
0.192996 0.652705 0.317861
0.192981 0.652766 0.317876
0.193042 0.65275 0.317876
0.193042 0.65275 0.317876
0.193042 0.65275 0.317876
0.193042 0.65275 0.317876
0.193042 0.652811 0.317876
0.193042 0.652811 0.317876
0.193042 0.652811 0.317876
0.193042 0.652811 0.317876
0.193042 0.652811 0.317876
0.544381 0.709087 0.312184
0.819577 0.758175 0.329534
0.821118 0.758389 0.32961
0.821454 0.758434 0.329641
0.193484 0.653498 0.317937
0.193484 0.653498 0.317937
0.193484 0.653498 0.317937
0.193484 0.653498 0.317937
0.193484 0.653498 0.317937
0.193484 0.653498 0.317937
0.193484 0.653498 0.317937
0.193484 0.653498 0.317937
0.193545 0.653498 0.317937
0.193545 0.653498 0.317937
0.193545 0.653498 0.317937
0.193545 0.653498 0.317937
0.193545 0.653498 0.317937
0.193545 0.653498 0.317937
0.599207 0.720256 0.315511
0.820768 0.759167 0.32987
0.821454 0.759243 0.3299
0.0241855 0.0246128 0.0286564
0.0252079 0.0254368 0.0295872
0.0272679 0.0262303 0.0299992
0.0371862 0.0280156 0.0316472
0.0656138 0.0335699 0.0360418
0.120226 0.0424353 0.0421759
0.219425 0.0565499 0.048127
0.329076 0.0803082 0.0537575
0.441291 0.0937362 0.0603342
0.537545 0.111818 0.0681773
0.59617 0.117556 0.0717174
0.634165 0.120821 0.0734264
0.649027 0.122087 0.0740063
0.651682 0.122316 0.0740673
0.65243 0.122377 0.0740673
0.65275 0.122408 0.0740673
0.652903 0.122423 0.0740673
0.0252995 0.0265812 0.0301518
0.0264591 0.0276799 0.0314488
0.028809 0.0287785 0.0325017
0.0363317 0.0287327 0.032166
0.0650645 0.0341039 0.0363317
0.121645 0.0429694 0.0424506
0.223865 0.0573587 0.0483864
0.334661 0.0816205 0.0541238
0.448417 0.0945754 0.0608682
0.542138 0.112337 0.068452
0.599649 0.117861 0.0718853
0.635813 0.120974 0.073518
0.649348 0.122118 0.0740063
0.651789 0.122316 0.0740673
0.652476 0.122377 0.0740673
0.652796 0.122408 0.0740673
0.652903 0.122423 0.0740673
0.0277104 0.0307774 0.0331579
0.0284733 0.0316014 0.0340429
0.0316014 0.0345312 0.0373541
0.0366369 0.0328832 0.035584
0.0621958 0.0357671 0.0369268
0.119051 0.0439002 0.0424659
0.222156 0.0579385 0.0484627
0.334981 0.0817578 0.0541543
0.449897 0.0948653 0.0610056
0.543618 0.112505 0.0685283
0.600824 0.117968 0.0719463
0.636454 0.121035 0.0735332
0.6495 0.122118 0.0740063
0.65185 0.122316 0.0740673
0.652476 0.122377 0.0740673
0.652796 0.122408 0.0740673
0.652903 0.122423 0.0740673
0.0306859 0.038468 0.0373846
0.03093 0.0388952 0.0377356
0.0330053 0.0418402 0.0406043
0.0401312 0.0454719 0.0444648
0.0630655 0.0446479 0.0412757
0.120104 0.0495918 0.0440833
0.221241 0.0627909 0.0493324
0.333852 0.0824903 0.054139
0.449882 0.0948653 0.0609751
0.544137 0.112566 0.068574
0.601358 0.118013 0.0719921
0.636835 0.12105 0.073579
0.649607 0.122133 0.0740063
0.65185 0.122316 0.0740673
0.652476 0.122377 0.0740673
0.652796 0.122408 0.0740673
0.652903 0.122423 0.0740673
0.0368505 0.0620279 0.051667
0.0369879 0.0626993 0.0520943
0.0372625 0.0628977 0.0522316
0.0391852 0.0635386 0.0529946
0.0651865 0.073518 0.0554818
0.129992 0.0779126 0.0540627
0.228382 0.0963149 0.0566415
0.336477 0.103624 0.0571603
0.448066 0.0962387 0.060914
0.544045 0.112566 0.068513
0.601511 0.118044 0.0719615
0.637034 0.12108 0.0735943
0.649668 0.122133 0.0740063
0.65185 0.122316 0.0740673
0.652476 0.122377 0.0740673
0.652796 0.122408 0.0740673
0.652903 0.122423 0.0740673
0.0450599 0.109239 0.0806134
0.0452888 0.110704 0.081529
0.0453803 0.111208 0.0818189
0.0456397 0.111635 0.0820478
0.0522927 0.113146 0.0821698
0.113451 0.132555 0.08159
0.236347 0.146807 0.0762188
0.351095 0.153948 0.0709392
0.453193 0.151797 0.0704356
0.547448 0.133883 0.0714427
0.601236 0.118379 0.0717784
0.636973 0.12108 0.0735332
0.649668 0.122133 0.0740063
0.65185 0.122316 0.0740673
0.652476 0.122377 0.0740673
0.652857 0.122408 0.0740673
0.652903 0.122423 0.0740673
0.0605783 0.197024 0.134417
0.0610513 0.199496 0.135805
0.0612802 0.200519 0.13637
0.0613565 0.201022 0.13666
0.0614023 0.20119 0.136751
0.0888533 0.201328 0.13228
0.200305 0.225376 0.12372
0.365347 0.230076 0.105303
0.476616 0.233722 0.0992142
0.569329 0.239536 0.0992294
0.629099 0.22211 0.0949416
0.656825 0.192325 0.0864576
0.65391 0.138705 0.0767071
0.651881 0.122347 0.0740063
0.652537 0.122377 0.0740673
0.652857 0.122408 0.0740673
0.652903 0.122423 0.0740673
0.0787518 0.283589 0.181491
0.079408 0.286168 0.182849
0.0797436 0.287465 0.183536
0.079942 0.288228 0.183932
0.0800183 0.288579 0.184115
0.0800793 0.28867 0.184161
0.167956 0.298222 0.166125
0.35079 0.325917 0.164843
0.497826 0.332448 0.151308
0.598611 0.331884 0.144503
0.667887 0.32932 0.140719
0.698207 0.3178 0.135363
0.701305 0.296895 0.124498
0.688075 0.252872 0.105867
0.657618 0.142 0.0774243
0.652857 0.122408 0.0740673
0.652903 0.122423 0.0740673
0.1028 0.370153 0.225757
0.103563 0.372946 0.227085
0.103883 0.374182 0.227695
0.104112 0.375051 0.228107
0.10428 0.375662 0.228397
0.104326 0.375845 0.228489
0.105257 0.37586 0.228397
0.309087 0.400778 0.202441
0.486061 0.426047 0.204593
0.619135 0.436088 0.199222
0.703792 0.429953 0.19028
0.742641 0.42237 0.189181
0.751385 0.410071 0.182788
0.745525 0.390524 0.172793
0.728359 0.350973 0.152193
0.682399 0.230716 0.0984512
0.653025 0.122927 0.0741436
0.124788 0.454063 0.262394
0.125521 0.45687 0.263493
0.125872 0.458274 0.264042
0.126085 0.459159 0.264378
0.126223 0.459785 0.264622
0.126314 0.460136 0.264759
0.126375 0.460395 0.264866
0.181231 0.458061 0.26096
0.428779 0.503395 0.241337
0.600961 0.524193 0.240574
0.72282 0.535393 0.241718
0.778302 0.532158 0.244465
0.792065 0.523278 0.24065
0.791104 0.511208 0.234348
0.784802 0.490288 0.223301
0.769436 0.447669 0.201602
0.719936 0.332036 0.142382
0.143236 0.534646 0.290654
0.143938 0.537224 0.291447
0.144335 0.538521 0.291844
0.144579 0.539467 0.292134
0.144778 0.540154 0.292348
0.1449 0.540581 0.292485
0.145006 0.540917 0.292592
0.145068 0.5411 0.292638
0.257359 0.535882 0.283177
0.53872 0.597223 0.273518
0.698116 0.616251 0.273487
0.78703 0.625727 0.278279
0.811139 0.624933 0.2813
0.814862 0.620813 0.2813
0.815641 0.612711 0.279988
0.814817 0.596017 0.276005
0.803555 0.552209 0.254978
0.1664 0.600443 0.309163
0.167193 0.601968 0.309483
0.16762 0.602823 0.309682
0.167926 0.603479 0.309819
0.168154 0.603845 0.309895
0.168338 0.604212 0.309972
0.168444 0.604425 0.310018
0.168505 0.604562 0.310048
0.168521 0.604639 0.310063
0.328191 0.611078 0.29807
0.643503 0.675273 0.299916
0.774273 0.692439 0.30454
0.812329 0.695247 0.30576
0.81651 0.693431 0.304936
0.817273 0.690318 0.303655
0.817319 0.684489 0.301305
0.8168 0.672129 0.296559
0.183536 0.633539 0.315496
0.183841 0.634195 0.315572
0.183993 0.634592 0.315633
0.184146 0.634867 0.315679
0.184192 0.635035 0.315709
0.184298 0.635203 0.31574
0.18436 0.635325 0.315755
0.184344 0.635431 0.31577
0.184405 0.635493 0.315785
0.184405 0.635493 0.315785
0.381338 0.657771 0.301244
0.732876 0.72639 0.318151
0.81091 0.737087 0.322393
0.819287 0.737087 0.322194
0.820401 0.736187 0.321798
0.820706 0.7346 0.321141
0.820569 0.731579 0.319905
0.189685 0.647318 0.317311
0.189792 0.647471 0.317311
0.189837 0.647639 0.317327
0.189899 0.647684 0.317342
0.18996 0.647745 0.317342
0.18996 0.647791 0.317342
0.190005 0.647852 0.317357
0.190005 0.647898 0.317357
0.190005 0.647898 0.317357
0.190005 0.647898 0.317357
0.190005 0.647898 0.317357
0.442206 0.683467 0.307073
0.791531 0.74931 0.326299
0.818936 0.752834 0.327825
0.820783 0.752865 0.327825
0.821393 0.752682 0.327779
0.82153 0.752255 0.327642
0.192004 0.651148 0.317693
0.192065 0.651255 0.317708
0.192126 0.651255 0.317708
0.192111 0.651316 0.317708
0.192111 0.651316 0.317708
0.192172 0.651362 0.317723
0.192172 0.651362 0.317723
0.192172 0.651362 0.317723
0.192172 0.651423 0.317723
0.192172 0.651423 0.317723
0.192172 0.651423 0.317723
0.192172 0.651423 0.317723
0.494347 0.697673 0.309895
0.81442 0.756146 0.328847
0.820539 0.756863 0.329122
0.821271 0.756893 0.329137
0.821469 0.756848 0.329122
0.192996 0.652644 0.317861
0.192996 0.652705 0.317861
0.192996 0.652705 0.317861
0.193042 0.65275 0.317876
0.193042 0.65275 0.317876
0.193042 0.65275 0.317876
0.193042 0.65275 0.317876
0.193042 0.652811 0.317876
0.193042 0.652811 0.317876
0.193042 0.652811 0.317876
0.193042 0.652811 0.317876
0.193042 0.652811 0.317876
0.193042 0.652811 0.317876
0.547906 0.709773 0.312352
0.819577 0.758175 0.329534
0.821118 0.758389 0.32961
0.821454 0.758434 0.329641
0.193484 0.653498 0.317937
0.193484 0.653498 0.317937
0.193484 0.653498 0.317937
0.193484 0.653498 0.317937
0.193484 0.653498 0.317937
0.193484 0.653498 0.317937
0.193484 0.653498 0.317937
0.193545 0.653498 0.317937
0.193545 0.653498 0.317937
0.193545 0.653498 0.317937
0.193545 0.653498 0.317937
0.193545 0.653498 0.317937
0.193545 0.653498 0.317937
0.193545 0.653559 0.317952
0.607065 0.721843 0.315908
0.820768 0.759167 0.32987
0.821454 0.759243 0.3299
0.0251011 0.0259556 0.0352636
0.0255741 0.0262913 0.035462
0.0280003 0.0277104 0.0369421
0.0410773 0.0310674 0.0411536
0.0693828 0.0347601 0.0436255
0.122042 0.0412757 0.0455634
0.220981 0.0547951 0.0502327
0.328969 0.0799878 0.0558633
