cdn/LUTs/Last Day.cube
TITLE "Generated by Resolve"
LUT_3D_SIZE 9
0 0.04477 0.0903029
0 0.0172885 0.0622721
0.153521 0 0.0552529
0.603906 0 0.0145266
1 0 0
1 0 0
1 0 0
1 0 0
1 0 0
0 0.0558785 0.0355993
0.0363165 0.0538491 0.0461585
0.126894 0.0472267 0.0141909
0.574014 0 0
1 0 0
1 0 0
1 0 0
1 0 0
1 0 0
0.0171206 0.0938125 0.0520485
0.00921645 0.120287 0.0373388
0.0697642 0.138918 0
0.553185 0.0459602 0
1 0 0
1 0 0
1 0 0
1 0 0
1 0 0.0112001
0 0.24831 0
0 0.314397 0
0 0.37174 0
0.387121 0.330968 0
1 0.200702 0
1 0.160494 0
1 0.17348 0
1 0.222705 0
1 0.28014 0
0 0.541924 0
0 0.629602 0
0 0.708553 0
0.19826 0.700206 0
0.872618 0.624445 0
1 0.546914 0
1 0.533394 0
1 0.565881 0
1 0.604929 0
0 0.86595 0
0 0.954742 0
0 1 0
0.150164 1 0
0.743786 0.937667 0
1 0.877119 0
1 0.850111 0
1 0.863081 0
1 0.883696 0
0 1 0
0 1 0
0 1 0
0.185016 1 0
0.74345 1 0
1 1 0
1 1 0
1 1 0
1 1 0
0 1 0
0 1 0
0 1 0
0.25417 1 0
0.79443 1 0
1 1 0
1 1 0
1 1 0
1 1 0
0 1 0
0 1 0
0 1 0
0.298344 1 0
0.822995 1 0
1 1 0
1 1 0
1 1 0
1 1 0
0 0.0433661 0.201129
0 0.0176852 0.140169
0.141482 0 0.132753
0.59202 0 0.0919203
1 0 0.0336461
1 0 0
1 0 0
1 0 0
1 0 0
0 0.108904 0.124361
0 0.0896773 0.127016
0.108431 0.0489815 0.0969253
0.563409 0 0.0580148
1 0 0.0041352
1 0 0
1 0 0
1 0 0
1 0 0.0355688
0.0252384 0.0951553 0.0716259
0.0647593 0.10634 0.0880751
0.0703899 0.141894 0.0570077
0.5411 0.0568399 0.0217899
1 0 0
1 0 0
1 0 0.00675975
1 0 0.0517433
1 0 0.105028
0 0.230716 0.0517281
0 0.294423 0.038941
0 0.37615 0
0.395285 0.346578 0
1 0.222675 0
1 0.184665 0
1 0.196399 0
1 0.24506 0
1 0.301411 0
0 0.527047 0
0 0.618311 0
0 0.713863 0
0.212634 0.717571 0
0.883986 0.64184 0
1 0.562432 0
1 0.54815 0
1 0.579293 0
1 0.616648 0
0 0.854765 0
0 0.947082 0
0 1 0
0.162249 1 0
0.748699 0.949767 0
1 0.887037 0
1 0.857862 0
1 0.869215 0
1 0.88835 0
0 1 0
0 1 0
0 1 0
0.189746 1 0
0.740841 1 0
1 1 0
1 1 0
1 1 0
1 1 0
0 1 0
0 1 0
0 1 0
0.25304 1 0
0.786725 1 0
1 1 0
1 1 0
1 1 0
1 1 0
0 1 0.0390173
0 1 0
0 1 0
0.292058 1 0
0.810727 1 0
1 1 0
1 1 0
1 1 0
1 1 0
0 0.0317082 0.267903
0 0.0163577 0.256031
0.121111 0 0.248219
0.571756 0 0.207233
1 0 0.149111
1 0 0.110353
1 0 0.0970169
1 0 0.102892
1 0 0.11693
0 0.117876 0.315068
0 0.0813764 0.255055
0.0888075 0.0478218 0.212772
0.544686 0 0.174243
1 0 0.121447
1 0 0.0928054
1 0 0.0959487
1 0 0.124163
1 0 0.162356
0 0.185153 0.163806
0 0.176333 0.16939
0.0150607 0.158022 0.178653
0.532876 0.0643626 0.145266
1 0 0.115862
1 0 0.111254
1 0 0.136034
1 0 0.182513
1 0 0.236683
0.0532387 0.214374 0.130068
0.0861982 0.267597 0.158389
0.0837415 0.346441 0.138399
0.394415 0.360296 0
1 0.24799 0
1 0.207309 0
1 0.217121 0.020798
1 0.265293 0.0720684
1 0.320607 0.124636
0 0.497963 0.0995346
0 0.587945 0.0929732
0 0.694316 0.0181888
0.222171 0.73283 0
0.88658 0.657465 0
1 0.575753 0
1 0.561212 0
1 0.591134 0
1 0.626856 0
0 0.824552 0.0872663
0 0.917327 0.0577707
0 1 0
0.170397 1 0
0.7449 0.959213 0
1 0.894621 0
1 0.862745 0
1 0.872526 0
1 0.890303 0
0 1 0.127153
0 1 0.0779889
0 1 0
0.191852 1 0
0.730678 1 0
1 1 0
1 1 0
1 1 0
1 1 0
0.0123903 1 0.185473
0.00195315 1 0.120653
6.10361e-05 1 0.00469978
0.249409 1 0
0.771252 1 0
1 1 0
1 1 0
1 1 0
1 1 0
0.0630503 1 0.224903
0.0449378 1 0.151019
0.0376135 1 0.0278935
0.282841 1 0
0.791211 1 0
1 1 0
1 1 0
1 1 0
1 1 0
0 0.0196841 0.600519
0 0.00483711 0.599222
0.0506447 0 0.591196
0.501472 0 0.550072
1 0 0.492088
1 0 0.45359
1 0 0.440726
1 0 0.447517
1 0 0.46392
0 0.0812848 0.570871
0 0.0654154 0.562783
0.0194095 0.0369573 0.556207
0.476753 0 0.518349
1 0 0.466621
1 0 0.440177
1 0 0.446494
1 0 0.47689
1 0 0.516991
0 0.199359 0.683436
0 0.1682 0.585229
0 0.145144 0.513252
0.475731 0.0626535 0.496529
1 0 0.468818
1 0 0.465827
1 0 0.492287
1 0 0.540078
1 0 0.594903
0 0.3841 0.280385
0 0.400443 0.309331
0 0.408667 0.338582
0.351171 0.362203 0.353094
1 0.267094 0.336812
1 0.217502 0.347112
1 0.225483 0.381353
1 0.272557 0.431342
1 0.326329 0.482444
0.188663 0.430213 0.318166
0.256428 0.499229 0.376959
0.311177 0.57586 0.423178
0.243793 0.716579 0.23566
0.835248 0.661768 0.0390021
1 0.57995 0
1 0.576516 0.0552987
1 0.608774 0.102754
1 0.64416 0.140856
0.249653 0.712703 0.437354
0.28719 0.789685 0.47071
0.293004 0.874052 0.464546
0.202823 1 0.174456
0.695125 0.956436 0.0209354
1 0.890913 0
1 0.854932 0
1 0.862638 0
1 0.879194 0
0.319753 0.95198 0.539757
0.329122 1 0.541543
0.304601 1 0.494896
0.217319 1 0.166659
0.677592 1 0
1 1 0
1 1 0
1 1 0
1 1 0
0.394018 1 0.622232
0.384848 1 0.603113
0.343465 1 0.534035
0.263844 1 0.191791
0.713466 1 0.0157015
1 1 0
1 1 0
1 1 0
1 1 0
0.443946 1 0.674235
0.422263 1 0.641337
0.368277 1 0.556878
0.289097 1 0.205158
0.729442 1 0.0227512
1 1 0
1 1 0
1 1 0
1 1 0
0 0.00276188 1
0 0 1
0 0 1
0.402197 0 1
1 0 0.967529
1 0 0.929534
1 0 0.917433
1 0 0.925383
1 0 0.94406
0 0.0635691 1
0 0.0483558 1
0 0.0204776 1
0.380072 0 0.995392
0.99675 0 0.94551
1 0 0.921523
1 0 0.930678
1 0 0.962631
1 0 1
0 0.150408 0.987137
0 0.14583 0.985656
0 0.136049 0.995941
0.390692 0.0561685 0.981582
1 0 0.955779
1 0 0.954681
1 0 0.982788
1 0 1
1 0 1
0 0.486412 1
0 0.495048 1
0 0.482246 1
0.267445 0.365042 0.838636
0.942077 0.268238 0.828672
1 0.218814 0.839048
1 0.226581 0.873091
1 0.272679 0.922194
1 0.324834 0.971862
0 0.693858 0.502327
0 0.72549 0.548699
0 0.74403 0.591165
0.296162 0.69044 0.611215
0.748638 0.657343 0.592554
1 0.602853 0.610346
1 0.597513 0.632517
1 0.626383 0.666056
1 0.659251 0.69836
0.334127 0.700587 0.57879
0.45008 0.748959 0.643839
0.552316 0.795438 0.702098
0.639261 0.844816 0.73698
0.631708 0.942672 0.506035
1 0.878843 0.353231
1 0.839704 0.332326
1 0.847761 0.354498
1 0.864073 0.375372
0.556725 0.87892 0.747143
0.610803 0.920089 0.787213
0.659846 0.95642 0.818601
0.668818 1 0.798611
0.618738 1 0.479759
1 1 0.376089
1 0.997147 0.24715
1 0.991867 0.229755
1 0.994415 0.229816
0.667674 1 0.857633
0.700999 1 0.879835
0.729259 1 0.893797
0.70341 1 0.842664
0.650462 1 0.494911
1 1 0.384909
1 1 0.259586
1 1 0.222309
1 1 0.211994
0.73373 1 0.92343
0.752102 1 0.932006
0.76492 1 0.931762
0.718334 1 0.860563
0.662638 1 0.499489
1 1 0.386053
1 1 0.265141
1 1 0.222873
1 1 0.210376
0 0 1
0 0 1
0 0 1
0.329335 0 1
0.934936 0 1
1 0 1
1 0 1
1 0 1
1 0 1
0 0.0515602 1
0 0.0367895 1
0 0.00935378 1
0.31014 0 1
0.930144 0 1
1 0 1
1 0 1
1 0 1
1 0 1
0 0.140566 1
0 0.139178 1
0 0.133211 1
0.332219 0.0551308 1
0.986831 0 1
1 0 1
1 0 1
1 0 1
1 0 1
0 0.466209 1
0 0.464622 1
0 0.443336 1
0.216602 0.370123 1
0.892332 0.274083 1
1 0.22475 1
1 0.232319 1
1 0.27747 1
1 0.328054 1
0 0.871519 1
0 0.905653 1
0 0.922698 1
0 0.836164 1
0.682689 0.664179 0.978454
1 0.605219 0.980117
1 0.597772 1
1 0.624491 1
1 0.655833 1
0 1 0.758663
0 1 0.800504
0 1 0.832929
0.236637 0.9738 0.836011
0.791897 0.876707 0.849836
1 0.872251 0.791516
1 0.850324 0.811048
1 0.860349 0.827741
1 0.876524 0.845121
0.0687419 1 0.80589
0.208591 1 0.841657
0.380224 1 0.872099
0.724193 0.990799 0.904585
0.859937 0.994553 0.91754
0.942901 1 0.748531
1 0.983322 0.657465
1 0.976532 0.659129
1 0.978073 0.665141
0.341115 1 0.902922
0.446082 1 0.925841
0.581506 1 0.946792
0.836667 1 0.972671
0.88278 1 0.950149
0.9505 1 0.749371
1 1 0.648798
1 1 0.62562
1 1 0.622095
0.467933 1 0.96466
0.548959 1 0.975311
0.659434 1 0.984527
0.869581 1 0.999008
0.888243 1 0.95877
0.952346 1 0.74789
1 1 0.651514
1 1 0.619257
1 1 0.612879
0 0 1
0 0 1
0 0 1
0.294575 0 1
0.900649 0 1
1 0 1
1 0 1
1 0 1
1 0 1
0 0.0471351 1
0 0.032929 1
0 0.00634775 1
0.278935 0 1
0.90219 0 1
1 0 1
1 0 1
1 0 1
1 0 1
0 0.140063 1
0 0.141466 1
0 0.138537 1
0.312779 0.0624399 1
0.96965 0 1
1 0 1
1 0 1
1 0 1
1 0.00514229 1
0 0.449851 1
0 0.451255 1
0 0.445914 1
0.205097 0.383719 1
0.881392 0.288045 1
1 0.238621 1
1 0.245502 1
1 0.289128 1
1 0.337804 1
0 0.919738 1
0 0.950851 1
0 0.961425 1
0 0.847684 1
0.667979 0.675227 1
1 0.614374 1
1 0.604898 1
1 0.629648 1
1 0.658915 1
0 1 1
0 1 1
0 1 1
0 1 1
0.38497 0.992676 1
0.9794 0.879088 0.998032
1 0.851621 1
1 0.860258 1
1 0.87509 1
0 1 0.9514
0 1 0.975036
0 1 0.989334
0.236561 1 0.974365
0.788876 1 0.961074
0.939513 1 0.946929
1 0.980865 0.896086
1 0.978912 0.910018
1 0.981506 0.916487
0 1 1
0 1 1
0.0572671 1 1
0.474189 1 1
0.926101 1 1
0.940505 1 0.942565
1 1 0.855741
1 1 0.850477
1 1 0.853147
0 1 1
0.0160983 1 1
0.161425 1 1
0.553979 1 1
0.955169 1 1
0.940352 1 0.939635
1 1 0.85156
1 1 0.835966
1 1 0.835752
0 0 1
0 0 1
0 0 1
0.286992 0 1
0.893751 0 1
1 0 1
1 0 1
1 0 1
1 0 1
0 0.0481727 1
0 0.0345312 1
0 0.00906386 1
0.276341 0 1
0.903136 0 1
1 0 1
1 0 1
1 0 1
1 0 1
0 0.14583 1
0 0.150515 1
0 0.150225 1
0.321798 0.0762188 1
0.981445 0 1
1 0 1
1 0 1
1 0 1
1 0.0242924 1
0 0.455665 1
0 0.461662 1
0 0.462547 1
0.221134 0.402975 1
0.897597 0.307362 1
1 0.257771 1
1 0.263676 1
1 0.305715 1
1 0.352422 1
0 0.945174 1
0 0.975158 1
0 0.983383 1
0 0.860304 1
0.679469 0.690913 1
1 0.628199 1
1 0.617014 1
1 0.639872 1
1 0.667308 1
0 1 1
0 1 1
0 1 1
0 1 1
0.348302 1 1
0.980331 0.886809 1
1 0.857939 1
1 0.865293 1
1 0.878935 1
0 1 1
0 1 1
0 1 1
0.0233616 1 1
0.604486 1 1
0.984588 1 0.996307
1 0.986984 0.972915
1 0.981552 0.975647
1 0.982788 0.979644
0 1 1
0 1 1
0 1 1
0.277989 1 1
0.809384 1 1
0.999802 1 1
1 1 0.927092
1 1 0.931838
1 1 0.936141
0 1 1
0 1 1
0 1 1
0.363485 1 1
0.865873 1 1
0.999176 1 1
1 1 0.91754
1 1 0.911315
1 1 0.914794
0 0 1
0 0 1
0 0 1
0.288045 0 1
0.895567 0 1
1 0 1
1 0 1
1 0 1
1 0 1
0 0.0512245 1
0 0.0380102 1
0 0.0138552 1
0.283467 0 1
0.91458 0 1
1 0 1
1 0 1
1 0 1
1 0 1
0 0.15378 1
0 0.16231 1
0 0.163836 1
0.340215 0.0923629 1
1 0 1
1 0 1
1 0 1
1 0 1
1 0.0451667 1
0 0.469352 1
0 0.477867 1
0 0.481727 1
0.24506 0.423453 1
0.921736 0.327871 1
1 0.278004 1
1 0.282902 1
1 0.323384 1
1 0.368292 1
0 0.967575 1
0 0.997055 1
0 1 1
0 0.876677 1
0.698955 0.70779 1
1 0.643122 1
1 0.62974 1
1 0.65098 1
1 0.67686 1
0 1 1
0 1 1
0 1 1
0 1 1
0.351995 1 1
0.988724 0.895369 1
1 0.865309 1
1 0.87158 1
1 0.884153 1
0 1 1
0 1 1
0 1 1
0 1 1
0.542992 1 1
0.953902 1 1
1 0.990311 0.994751
1 0.983505 0.996201
1 0.98378 0.999329
0 1 1
0 1 1
0 1 1
0.214359 1 1
0.757198 1 1
1 1 1
1 1 0.951492
1 1 0.958419
1 1 0.96083
0 1 1
0 1 1
0 1 1
0.298665 1 1
0.818509 1 1
1 1 1
1 1 0.939376
1 1 0.937224
1 1 0.941756
