cdn/LUTs/Last Day.cube
TITLE "Generated by Resolve"
LUT_3D_SIZE 33
0 0.04477 0.0903029
0 0.0380255 0.0907759
0 0.0314183 0.0902571
0 0.0234531 0.0803082
0 0.0172885 0.0622721
0.0221714 0.01355 0.0620584
0.0541543 0.00842298 0.0611887
0.095201 0.000717174 0.0591745
0.153521 0 0.0552529
0.23798 0 0.0482338
0.342916 0 0.0388952
0.465354 0 0.0276799
0.603906 0 0.0145266
0.753735 0 7.62951e-05
0.908476 0 0
1 0 0
1 0 0
1 0 0
1 0 0
1 0 0
1 0 0
1 0 0
1 0 0
1 0 0
1 0 0
1 0 0
1 0 0
1 0 0
1 0 0
1 0 0
1 0 0
1 0 0
1 0 0
0 0.0576028 0.0639963
0 0.0530098 0.0645304
0 0.0486 0.0653697
0 0.0441444 0.0665141
0 0.038529 0.0670634
0.011902 0.0297704 0.0530251
0.0443122 0.0243992 0.0510109
0.0852369 0.0165408 0.0488746
0.143404 0.00399786 0.0447852
0.228092 0 0.0377966
0.333028 0 0.0283818
0.455192 0 0.0170443
0.594018 0 0.00392157
0.743893 0 0
0.898375 0 0
1 0 0
1 0 0
1 0 0
1 0 0
1 0 0
1 0 0
1 0 0
1 0 0
1 0 0
1 0 0
1 0 0
1 0 0
1 0 0
1 0 0
1 0 0
1 0 0
1 0 0
1 0 0
0 0.0650187 0.0454414
0 0.0607156 0.0448463
0 0.0568399 0.0444038
0 0.0534218 0.0442054
0 0.049958 0.0439612
0.00015259 0.0458534 0.043534
0.0337224 0.0399481 0.0432441
0.0763714 0.0316472 0.0395361
0.134569 0.019028 0.0353857
0.219257 0 0.0283055
0.324376 0 0.0189517
0.44654 0 0.00767529
0.585687 0 0
0.735851 0 0
0.890349 0 0
1 0 0
1 0 0
1 0 0
1 0 0
1 0 0
1 0 0
1 0 0
1 0 0
1 0 0
1 0 0
1 0 0
1 0 0
1 0 0
1 0 0
1 0 0
1 0 0
1 0 0
1 0 0
0 0.0593271 0.0343175
0 0.055314 0.0349126
0 0.0518349 0.0359197
0.00451667 0.0489357 0.0375067
0.0241245 0.0467536 0.0399329
0.037232 0.0463417 0.0427558
0.0378119 0.0502632 0.0405127
0.0726329 0.0454414 0.0270542
0.127047 0.0336919 0.0270542
0.211933 0.0140383 0.0200351
0.317327 0 0.0108034
0.439689 0 0
0.579156 0 0
0.729503 0 0
0.884337 0 0
1 0 0
1 0 0
1 0 0
1 0 0
1 0 0
1 0 0
1 0 0
1 0 0
1 0 0
1 0 0
1 0 0
1 0 0
1 0 0
1 0 0
1 0 0
1 0 0
1 0 0
1 0 0
0 0.0558785 0.0355993
0.00289921 0.0530709 0.0380865
0.0198825 0.0516518 0.0411231
0.0307927 0.0518807 0.0439918
0.0363165 0.0538491 0.0461585
0.0392615 0.0569619 0.0470741
0.0331579 0.06392 0.036347
0.0613413 0.0611734 0.022797
0.126894 0.0472267 0.0141909
0.205615 0.0291905 0.0122072
0.31104 0.00433356 0.00320439
0.433783 0 0
0.574014 0 0
0.724926 0 0
0.880034 0 0
1 0 0
1 0 0
1 0 0
1 0 0
1 0 0
1 0 0
1 0 0
1 0 0
1 0 0
1 0 0
1 0 0
1 0 0
1 0 0
1 0 0
1 0 0
1 0 0
1 0 0
1 0 0
0.0130617 0.0572671 0.0421607
0.0243381 0.0575265 0.0450752
0.030396 0.0594339 0.0473793
0.035111 0.0619516 0.0494392
0.0377813 0.065095 0.0503853
0.0363622 0.0699168 0.0477302
0.0282292 0.0783703 0.031281
0.0542763 0.0766613 0.0180972
0.122759 0.0637064 0
0.204135 0.0446784 0.000671397
0.305104 0.0215152 0
0.428046 0 0
0.568765 0 0
0.720592 0 0
0.87689 0 0
1 0 0
1 0 0
1 0 0
1 0 0
1 0 0
1 0 0
1 0 0
1 0 0
1 0 0
1 0 0
1 0 0
1 0 0
1 0 0
1 0 0
1 0 0
1 0 0
1 0 0
1 0 0
0.0230716 0.0654765 0.0482185
0.0286717 0.0678569 0.0504005
0.0325933 0.0706645 0.052018
0.0348363 0.0741741 0.0527504
0.0347295 0.0789349 0.051606
0.0301518 0.0856641 0.0449073
0.0222782 0.0948959 0.0251011
0.0464942 0.0942855 0.0107576
0.105303 0.0845655 0
0.209354 0.0616465 0
0.302358 0.0405432 0
0.421988 0.01355 0
0.563272 0 0
0.716197 0 0
0.87393 0 0
1 0 0
1 0 0
1 0 0
1 0 0
1 0 0
1 0 0
1 0 0
1 0 0
1 0 0
1 0 0
1 0 0
1 0 0
1 0 0
1 0 0
1 0 0
1 0 0
1 0 0
1 0 0
0.0242771 0.0773785 0.0522316
0.0276036 0.0808423 0.0534524
0.0293889 0.0851759 0.0538796
0.0290837 0.0902266 0.0525826
0.0261692 0.0964828 0.0482185
0.0196536 0.104768 0.0375372
0.0133516 0.114748 0.0161746
0.0359808 0.115984 0.000808728
0.089601 0.10811 0
0.196201 0.0878767 0
0.308309 0.0624094 0
0.418402 0.0388647 0
0.557137 0.00939956 0
0.711315 0 0
0.870787 0 0
1 0 0
1 0 0
1 0 0
1 0 0
1 0 0
1 0 0
1 0 0
1 0 0
1 0 0
1 0 0
1 0 0
1 0 0
1 0 0
1 0 0
1 0 0
1 0 0
1 0 0
1 0 0.00291447
0.0171206 0.0938125 0.0520485
0.0175631 0.0989242 0.0512398
0.0164645 0.104875 0.0490578
0.0138552 0.111925 0.0449378
0.00921645 0.120287 0.0373388
0.00251774 0.130358 0.0236057
0 0.140764 0.0016022
0.0182803 0.144167 0
0.0697642 0.138918 0
0.160235 0.125353 0
0.301656 0.0974594 0
0.426093 0.0710155 0
0.553185 0.0459602 0
0.703273 0.0167086 0
0.863508 0 0
1 0 0
1 0 0
1 0 0
1 0 0
1 0 0
1 0 0
1 0 0
1 0 0
1 0 0
1 0 0
1 0 0
1 0 0
1 0 0
1 0 0
1 0 0
1 0 0
1 0 0
1 0 0.0112001
0 0.117906 0.0423896
0 0.125399 0.038529
0 0.133501 0.0330358
0 0.142473 0.0255741
0 0.153094 0.015198
0 0.164981 0
0 0.177203 0
0 0.183642 0
0.0392309 0.18172 0
0.122118 0.171572 0
0.2495 0.153872 0
0.416556 0.12253 0
0.566033 0.0928817 0
0.701381 0.0679789 0
0.852018 0.0409247 0
1 0.0126497 0
1 0 0
1 0 0
1 0 0
1 0 0
1 0 0
1 0 0
1 0 0
1 0 0
1 0 0
1 0 0
1 0 0
1 0 0
1 0 0
1 0 0
1 0 0
1 0.00581369 0
1 0.0202945 0.00340276
0 0.150332 0.0227817
0 0.160479 0.0159304
0 0.17171 0.00820935
0 0.183429 0
0 0.195819 0
0 0.20943 0
0 0.223819 0
0 0.234363 0
0.00729381 0.236637 0
0.0874495 0.229679 0
0.195636 0.21648 0
0.354894 0.194049 0
0.546212 0.158175 0
0.717372 0.124941 0
0.859831 0.100145 0
1 0.0763256 0
1 0.0532387 0
1 0.0327306 0
1 0.0161746 0
1 0.00437934 0
1 0 0
1 0 0
1 0 0
1 0 0
1 0 0
1 0.00831617 0
1 0.0195315 0
1 0.0325628 0
1 0.0466011 0
1 0.0611582 0
1 0.0758831 0
1 0.090547 0
1 0.105089 0
0 0.193606 0
0 0.206241 0
0 0.220233 0
0 0.235004 0
0 0.250416 0
0 0.266346 0
0 0.282124 0
0 0.295109 0
0 0.30045 0
0.0479896 0.296818 0
0.151949 0.285893 0
0.283085 0.269871 0
0.472755 0.242756 0
0.680964 0.204654 0
0.869047 0.169497 0
1 0.143038 0
1 0.123247 0
1 0.106584 0
1 0.0929122 0
1 0.0833906 0
1 0.0776226 0
1 0.0754253 0
1 0.076112 0
1 0.0795605 0
1 0.0858778 0
1 0.0953384 0
1 0.107057 0
1 0.120531 0
1 0.13463 0
1 0.149233 0
1 0.163943 0
1 0.178897 0
1 0.193286 0
0 0.24831 0
0 0.264515 0
0 0.280812 0
0 0.297459 0
0 0.314397 0
0 0.331731 0
0 0.348684 0
0 0.363592 0
0 0.37174 0
0.00563058 0.371664 0
0.106706 0.3635 0
0.231067 0.349874 0
0.387121 0.330968 0
0.597177 0.301122 0
0.814282 0.263127 0
1 0.227588 0
1 0.200702 0
1 0.183017 0
1 0.171344 0
1 0.164187 0
1 0.160494 0
1 0.160021 0
1 0.162158 0
1 0.166567 0
1 0.17348 0
1 0.183307 0
1 0.19527 0
1 0.208621 0
1 0.222705 0
1 0.237171 0
1 0.251789 0
1 0.266163 0
1 0.28014 0
0 0.313222 0
0 0.331365 0
0 0.349233 0
0 0.366827 0
0 0.385504 0
0 0.404211 0
0 0.422599 0
0 0.439246 0
0 0.450004 0
0 0.45304 0
0.0605478 0.448096 0
0.182239 0.436576 0
0.327199 0.420233 0
0.502525 0.399603 0
0.721904 0.369146 0
0.942596 0.332509 0
1 0.299596 0
1 0.274311 0
1 0.257221 0
1 0.247608 0
1 0.243259 0
1 0.24303 0
1 0.245716 0
1 0.250736 0
1 0.258122 0
1 0.268162 0
1 0.280201 0
1 0.293507 0
1 0.307393 0
1 0.32137 0
1 0.335317 0
1 0.349081 0
1 0.362402 0
0 0.384756 0
0 0.40444 0
0 0.423758 0
0 0.443122 0
0 0.462531 0
0 0.482322 0
0 0.502083 0
0 0.520439 0
0 0.533333 0
0 0.538766 0
0.0165103 0.536721 0
0.135729 0.527581 0
0.276783 0.512856 0
0.437049 0.494575 0
0.623758 0.473243 0
0.845106 0.44329 0
1 0.41033 0
1 0.381811 0
1 0.359686 0
1 0.344732 0
1 0.335836 0
1 0.332448 0
1 0.332677 0
1 0.336034 0
1 0.34229 0
1 0.351873 0
1 0.362966 0
1 0.375311 0
1 0.388327 0
1 0.401694 0
1 0.414527 0
1 0.427054 0
1 0.439231 0
0 0.461433 0
0 0.482124 0
0 0.503136 0
0 0.523949 0
0 0.544564 0
0 0.565255 0
0 0.585962 0
0 0.605631 0
0 0.620386 0
0 0.627558 0
0 0.627649 0
0.0958724 0.620539 0
0.234333 0.607187 0
0.389212 0.590036 0
0.557534 0.570626 0
0.750271 0.548806 0
0.961608 0.521294 0
1 0.493339 0
1 0.469841 0
1 0.452461 0
1 0.440543 0
1 0.433829 0
1 0.431006 0
1 0.431388 0
1 0.435218 0
1 0.442496 0
1 0.451987 0
1 0.46276 0
1 0.474388 0
1 0.486259 0
1 0.497749 0
1 0.50869 0
1 0.519341 0
0 0.541924 0
0 0.563912 0
0 0.586053 0
0 0.60795 0
0 0.629602 0
0 0.650996 0
0 0.672282 0
0 0.692576 0
0 0.708553 0
0 0.71693 0
0 0.718364 0
0.0626993 0.712581 0
0.19826 0.700206 0
0.350134 0.683574 0
0.511482 0.665171 0
0.683726 0.645197 0
0.872618 0.624445 0
1 0.601022 0
1 0.578454 0
1 0.560296 0
1 0.546914 0
1 0.53846 0
1 0.533669 0
1 0.531853 0
1 0.533394 0
1 0.538827 0
1 0.546746 0
1 0.555947 0
1 0.565881 0
1 0.576303 0
1 0.586465 0
1 0.595941 0
1 0.604929 0
0 0.623819 0
0 0.647227 0
0 0.669932 0
0 0.692302 0
0 0.714504 0
0 0.736355 0
0 0.757702 0
0 0.777951 0
0 0.794186 0
0 0.803082 0
0 0.805356 0
0.0387579 0.800488 0
0.171466 0.788846 0
0.321035 0.772503 0
0.478538 0.754376 0
0.642847 0.735256 0
0.811933 0.715877 0
0.987518 0.697078 0
1 0.677577 0
1 0.660487 0
1 0.646326 0
1 0.636561 0
1 0.630411 0
1 0.627558 0
1 0.62742 0
1 0.631113 0
1 0.637613 0
1 0.645685 0
1 0.654185 0
1 0.66305 0
1 0.671931 0
1 0.680201 0
1 0.687846 0
0 0.706508 0
0 0.730541 0
0 0.753613 0
0 0.776074 0
0 0.798093 0
0 0.819699 0
0 0.840803 0
0 0.860716 0
0 0.876707 0
0 0.885649 0
0 0.888273 0
0.0265049 0.883864 0
0.156405 0.87248 0
0.303456 0.855848 0
0.457954 0.837308 0
0.616983 0.817899 0
0.777005 0.798337 0
0.935622 0.780865 0
1 0.764294 0
1 0.748714 0
1 0.735042 0
1 0.72462 0
1 0.717479 0
1 0.713237 0
1 0.711986 0
1 0.71429 0
1 0.719432 0
1 0.726192 0
1 0.733562 0
1 0.7411 0
1 0.748653 0
1 0.75584 0
1 0.762707 0
0 0.788006 0
0 0.811887 0
0 0.83476 0
0 0.856977 0
0 0.87863 0
0 0.899733 0
0 0.920302 0
0 0.939635 0
0 0.954955 0
0 0.963348 0
0 0.965515 0
0.0226596 0.960952 0
0.150027 0.949386 0
0.294438 0.932189 0
0.446021 0.912734 0
0.60119 0.892638 0
0.755978 0.872694 0
0.904433 0.85449 0
1 0.838804 0
1 0.824765 0
1 0.812085 0
1 0.801617 0
1 0.793759 0
1 0.788617 0
1 0.786496 0
1 0.787701 0
1 0.791531 0
1 0.797086 0
1 0.803449 0
1 0.809964 0
1 0.816281 0
1 0.822293 0
1 0.827939 0
0 0.86595 0
0 0.889464 0
0 0.911879 0
0 0.933639 0
0 0.954742 0
0 0.975052 0
0 0.994476 0
0 1 0
0 1 0
0 1 0
0 1 0
0.0252232 1 0
0.150164 1 0
0.292393 1 0
0.44123 0.979721 0
0.593011 0.958434 0
0.743786 0.937667 0
0.887083 0.919081 0
1 0.902785 0
1 0.889067 0
1 0.877119 0
1 0.867048 0
1 0.858885 0
1 0.852995 0
1 0.850111 0
1 0.850523 0
1 0.853376 0
1 0.85774 0
1 0.863081 0
1 0.868727 0
1 0.874128 0
1 0.879057 0
1 0.883696 0
0 0.941314 0
0 0.964233 0
0 0.985763 0
0 1 0
0 1 0
0 1 0
0 1 0
0 1 0
0 1 0
0 1 0
0 1 0
0.0326085 1 0
0.155093 1 0
0.29485 1 0
0.441474 1 0
0.590509 1 0
0.737911 0.994919 0
0.876814 0.975296 0
1 0.958083 0
1 0.943923 0
1 0.932052 0
1 0.922103 0
1 0.914076 0
1 0.907774 0
1 0.904204 0
1 0.903899 0
1 0.906035 0
1 0.909499 0
1 0.913771 0
1 0.918517 0
1 0.923186 0
1 0.927367 0
1 0.931105 0
0 1 0
0 1 0
0 1 0
0 1 0
0 1 0
0 1 0
0 1 0
0 1 0
0 1 0
0 1 0
0 1 0
0.0430915 1 0
0.163195 1 0
0.300725 1 0
0.445365 1 0
0.592142 1 0
0.736614 1 0
0.872206 1 0
0.997238 1 0
1 0.99118 0
1 0.978897 0
1 0.968719 0
1 0.960449 0
1 0.953902 0
1 0.949798 0
1 0.94876 0
1 0.950225 0
1 0.953033 0
1 0.956542 0
1 0.960372 0
1 0.964279 0
1 0.967865 0
1 0.971222 0
0 1 0
0 1 0
0 1 0
0 1 0
0 1 0
0 1 0
0 1 0
0 1 0
0 1 0
0 1 0
0 1 0
0.0550851 1 0
0.17319 1 0
0.308522 1 0
0.451255 1 0
0.596216 1 0
0.738384 1 0
0.871092 1 0
0.992981 1 0
1 1 0
1 1 0
1 1 0
1 0.999619 0
1 0.992752 0
1 0.988418 0
1 0.986694 0
1 0.987381 0
1 0.989563 0
1 0.992538 0
1 0.995773 0
1 0.998947 0
1 1 0
1 1 0
0 1 0
0 1 0
0 1 0
0 1 0
0 1 0
0 1 0
0 1 0
0 1 0
0 1 0
0 1 0
0 1 0
0.0684062 1 0
0.185016 1 0
0.318593 1 0
0.459571 1 0
0.603006 1 0
0.74345 1 0
0.87396 1 0
0.993149 1 0
1 1 0
1 1 0
1 1 0
1 1 0
1 1 0
1 1 0
1 1 0
1 1 0
1 1 0
1 1 0
1 1 0
1 1 0
1 1 0
1 1 0
0 1 0
0 1 0
0 1 0
0 1 0
0 1 0
0 1 0
0 1 0
0 1 0
0 1 0
0 1 0
0 1 0
0.0848096 1 0
0.200244 1 0
0.332418 1 0
0.471763 1 0
0.613642 1 0
0.752621 1 0
0.881621 1 0
0.998947 1 0
1 1 0
1 1 0
1 1 0
1 1 0
1 1 0
1 1 0
1 1 0
1 1 0
1 1 0
1 1 0
1 1 0
1 1 0
1 1 0
1 1 0
0 1 0
0 1 0
0 1 0
0 1 0
0 1 0
0 1 0
0 1 0
0 1 0
0 1 0
0 1 0
0.00993362 1 0
0.103731 1 0
0.218036 1 0
0.349218 1 0
0.487633 1 0
0.628122 1 0
0.765637 1 0
0.89337 1 0
1 1 0
1 1 0
1 1 0
1 1 0
1 1 0
1 1 0
1 1 0
1 1 0
1 1 0
1 1 0
1 1 0
1 1 0
1 1 0
1 1 0
1 1 0
0 1 0
0 1 0
0 1 0
0 1 0
0 1 0
0 1 0
0 1 0
0 1 0
0 1 0
