cdn/LUTs/Last Day.cube
TITLE "Generated by Resolve"
LUT_3D_SIZE 5
0 0.04477 0.0903029
0.153521 0 0.0552529
1 0 0
1 0 0
1 0 0
0.0171206 0.0938125 0.0520485
0.0697642 0.138918 0
1 0 0
1 0 0
1 0 0.0112001
0 0.541924 0
0 0.708553 0
0.872618 0.624445 0
1 0.533394 0
1 0.604929 0
0 1 0
0 1 0
0.74345 1 0
1 1 0
1 1 0
0 1 0
0 1 0
0.822995 1 0
1 1 0
1 1 0
0 0.0317082 0.267903
0.121111 0 0.248219
1 0 0.149111
1 0 0.0970169
1 0 0.11693
0 0.185153 0.163806
0.0150607 0.158022 0.178653
1 0 0.115862
1 0 0.136034
1 0 0.236683
0 0.497963 0.0995346
0 0.694316 0.0181888
0.88658 0.657465 0
1 0.561212 0
1 0.626856 0
0 1 0.127153
0 1 0
0.730678 1 0
1 1 0
1 1 0
0.0630503 1 0.224903
0.0376135 1 0.0278935
0.791211 1 0
1 1 0
1 1 0
0 0.00276188 1
0 0 1
1 0 0.967529
1 0 0.917433
1 0 0.94406
0 0.150408 0.987137
0 0.136049 0.995941
1 0 0.955779
1 0 0.982788
1 0 1
0 0.693858 0.502327
0 0.74403 0.591165
0.748638 0.657343 0.592554
1 0.597513 0.632517
1 0.659251 0.69836
0.556725 0.87892 0.747143
0.659846 0.95642 0.818601
0.618738 1 0.479759
1 0.997147 0.24715
1 0.994415 0.229816
0.73373 1 0.92343
0.76492 1 0.931762
0.662638 1 0.499489
1 1 0.265141
1 1 0.210376
0 0 1
0 0 1
0.900649 0 1
1 0 1
1 0 1
0 0.140063 1
0 0.138537 1
0.96965 0 1
1 0 1
1 0.00514229 1
0 0.919738 1
0 0.961425 1
0.667979 0.675227 1
1 0.604898 1
1 0.658915 1
0 1 0.9514
0 1 0.989334
0.788876 1 0.961074
1 0.980865 0.896086
1 0.981506 0.916487
0 1 1
0.161425 1 1
0.955169 1 1
1 1 0.85156
1 1 0.835752
0 0 1
0 0 1
0.895567 0 1
1 0 1
1 0 1
0 0.15378 1
0 0.163836 1
1 0 1
1 0 1
1 0.0451667 1
0 0.967575 1
0 1 1
0.698955 0.70779 1
1 0.62974 1
1 0.67686 1
0 1 1
0 1 1
0.542992 1 1
1 0.990311 0.994751
1 0.98378 0.999329
0 1 1
0 1 1
0.818509 1 1
1 1 0.939376
1 1 0.941756
